!!!COM: Beethoven, Ludwig van
!!!CDT: 1770///-1827///
!!!ODT: 1809///
!!!OTL: String Quartet No. 10 in E-flat Major, Op. 74
!!!OPS: Op. 74
!!!OMV: Mvmt. 1
!!!OMD: Poco Adagio. Allegro
!!!PDT: 1810///
!!!PPP: Leipzig and London
!!!ODE: Prince Lobkowitz
**kern	**dynam	**kern	**dynam	**kern	**dynam	**kern	**dynam
*staff4	*staff4	*staff3	*staff3	*staff2	*staff2	*staff1	*staff1
*Icello	*Icello	*Iviola	*Iviola	*Ivioln	*Ivioln	*Ivioln	*Ivioln
*>[A,A,B]	*>[A,A,B]	*>[A,A,B]	*>[A,A,B]	*>[A,A,B]	*>[A,A,B]	*>[A,A,B]	*>[A,A,B]
*>norep[A,B]	*>norep[A,B]	*>norep[A,B]	*>norep[A,B]	*>norep[A,B]	*>norep[A,B]	*>norep[A,B]	*>norep[A,B]
*clefF4	*clefF4	*clefC3	*clefC3	*clefG2	*clefG2	*clefG2	*clefG2
*k[b-e-a-]	*k[b-e-a-]	*k[b-e-a-]	*k[b-e-a-]	*k[b-e-a-]	*k[b-e-a-]	*k[b-e-a-]	*k[b-e-a-]
*E-:	*E-:	*E-:	*E-:	*E-:	*E-:	*E-:	*E-:
*met(C)	*met(C)	*met(C)	*met(C)	*met(C)	*met(C)	*met(C)	*met(C)
*M4/4	*M4/4	*M4/4	*M4/4	*M4/4	*M4/4	*M4/4	*M4/4
*MM72	*MM72	*MM72	*MM72	*MM72	*MM72	*MM72	*MM72
*>A	*>A	*>A	*>A	*>A	*>A	*>A	*>A
=1-	=1-	=1-	=1-	=1-	=1-	=1-	=1-
(2E-\	.	2B-/	.	2g/	.	(2ee-\	.
4.D-\	.	(4.B-/	.	4.e-/	.	4.g/	.
8C/)	.	8A-/)	.	8e-/	.	8a-/)	.
=2	=2	=2	=2	=2	=2	=2	=2
4BB-/	.	4G/	.	4e-/	.	4dd-\	.
4r	.	4r	.	4r	.	4r	.
2r	.	2r	.	2r	.	2r	.
=3	=3	=3	=3	=3	=3	=3	=3
(2E-\	.	2B-/	.	2g/	.	(2ee-\	.
4.D-\	.	(4.B-/	.	4.e-/	.	4.g/	.
8C/)	.	8A-/)	.	8e-/	.	8a-/)	.
=4	=4	=4	=4	=4	=4	=4	=4
4GG/	.	4B-/	.	4en/	.	[1dd-	.
4r	.	4r	.	4r	.	.	.
2r	.	4r	.	[2bb-\	.	.	.
.	.	[4en\	.	.	.	.	.
=5	=5	=5	=5	=5	=5	=5	=5
(2.FF/	.	2e\]	.	2bb-\]	.	2.dd-\]	.
.	.	[2f\	.	[2aa-\	.	.	.
4BB-/)	.	.	.	.	.	[4ddn\	.
=6	=6	=6	=6	=6	=6	=6	=6
(2.EE-/	.	(4f\]	.	2aa-\]	.	2dd\]	.
.	.	4cc-\	.	.	.	.	.
.	.	4b-\	.	(4gg\	.	(4ee-\	.
4AAn/)	.	4cn\)	.	8ff\L	.	8cc\L	.
.	.	.	.	8f\J)	.	8ff\J	.
=7	=7	=7	=7	=7	=7	=7	=7
1BB-	.	(2A-/	.	(2f/	.	4ee-\	.
.	.	.	.	.	.	4dd\	.
.	.	4.D/	.	4a-/	.	4cc\	.
.	.	.	.	4g/)	.	4b-\)	.
.	.	8E-/)	.	.	.	.	.
=8	=8	=8	=8	=8	=8	=8	=8
(2C/	.	(4En/	.	(4g/	.	(4b-/	.
.	.	4F/	.	8f/)	.	8a-/)	.
.	.	.	.	8r	.	8r	.
4.FF/	.	4D/	.	4B-/	.	(4a-/	.
.	.	4E-/)	.	8B-/	.	8g/)	.
8GG/)	.	.	.	8r	.	8r	.
=9	=9	=9	=9	=9	=9	=9	=9
4AA-/	.	4A-/	.	4c/	.	[4g/	.
4r	.	4r	.	4r	.	16g/LL]	.
.	.	.	.	.	.	(16f/	.
.	.	.	.	.	.	16en/	.
.	.	.	.	.	.	16f/JJ	.
4r	.	4r	.	2r	.	16e/LL	.
.	.	.	.	.	.	16f/	.
.	.	.	.	.	.	16g/	.
.	.	.	.	.	.	16f/JJ	.
[4FF/	.	[4A-/	.	.	.	16ee-\LL	.
.	.	.	.	.	.	16ff\	.
.	.	.	.	.	.	16gg\	.
.	.	.	.	.	.	16ff\JJ)	.
=10	=10	=10	=10	=10	=10	=10	=10
(4FF/]	.	4A-/]	.	4r	.	(4aa-\	.
(4EE-/)	.	[4F/ 4A-/	.	(8.f/L	.	4c-/	.
.	.	.	.	16g/Jk	.	.	.
8DD/L)	.	8F/] 8A-/L	.	8a-/L	.	4B-/	.
(8D/	.	(8F/	.	8f/)	.	.	.
8E-/	.	8G/	.	8B-/	.	8.b-/L	.
8GG/J)	.	8E-/J)	.	8B-/J	.	.	.
.	.	.	.	.	.	32a-/LL	.
.	.	.	.	.	.	32g/JJJ)	.
=11	=11	=11	=11	=11	=11	=11	=11
4AA-/	p	4E-/	p	4c/	p	4f/	p
4r	.	4r	.	4r	.	4r	.
8r	.	8r	.	8r	.	8r	.
(8AA-/L	.	8E-/L	.	(8c/L	.	8f/L	.
8BB-/	.	8E-/	.	8B-/	.	8g/	.
8C/J	.	8E-/J	.	8A-/J	.	8a-/J	.
=12	=12	=12	=12	=12	=12	=12	=12
4BB-/	.	4E-/	.	4B-/	.	4g/	.
4AAn/)	.	4E-/	.	4c/)	.	4f/	.
8r	.	8r	.	8r	.	8r	.
(8BB-/L	.	8E-/L	.	(8d-/L	.	(8g/L	.
8C/	.	8E-/	.	8c/	.	8a-/	.
8D-/J	.	8E-/J	.	8B-/J	.	8b-/J	.
=13	=13	=13	=13	=13	=13	=13	=13
4C/	.	4E-/	.	4c/	.	4a-/	.
4BB-/)	.	4E-/	.	4d-/)	.	4g/)	f
8GG/	f	8E-/ 8G/	f	8e-/ 8b-/	f	8G/ 8e-/ 8dd-/	.
8r	.	8r	.	8r	.	8r	.
4r	.	4r	.	4r	.	4r	.
=14	=14	=14	=14	=14	=14	=14	=14
1r	.	(2c/	p	1r	.	4r	.
.	.	.	.	.	.	[4cc\	p
.	.	4.En/	.	.	.	(16cc\LL]	.
.	.	.	.	.	.	16ccc\	.
.	.	.	.	.	.	16bb-\	.
.	.	.	.	.	.	16aa-\JJ	.
.	.	.	.	.	.	16gg\LL	.
.	.	.	.	.	.	16bb-\	.
.	.	8F/)	.	.	.	16aa-\	.
.	.	.	.	.	.	16ff\JJ)	.
=15	=15	=15	=15	=15	=15	=15	=15
4C/	p	4F/	.	4a-/	p	[1e- [1ee-	.
4r	.	4r	.	4r	.	.	.
8r	.	8r	.	8r	.	.	.
(8C/L	.	(8F/L	.	(8a-/L	.	.	.
8BB-/	.	8G/	.	8b-/	.	.	.
8AA-/J	.	8A-/J	.	8cc/J	.	.	.
=16	=16	=16	=16	=16	=16	=16	=16
4BB-/	.	4G/	.	4b-/	.	1e-_ 1ee-_	.
4C/)	.	4F/)	.	4an/)	.	.	.
8r	.	8r	.	8r	.	.	.
(8D-/L	.	(8G/L	.	(8b-\L	.	.	.
8C/	.	8A-/	.	8cc\	.	.	.
8BB-/J	.	8B-/J	.	8dd-\J	.	.	.
=17	=17	=17	=17	=17	=17	=17	=17
4C/	.	4A-/	.	4cc\	.	2e-/] 2ee-/]	.
4D-/)	.	4G/)	.	4b-\)	f	.	.
8GG/	f	8G\ 8e-\ 8b-\	f	8b-\ 8bb-\	.	8g\ 8ee-\ 8ddd-\	f
8r	.	8r	.	8r	.	8r	.
4r	.	4r	.	4r	.	4r	.
=18	=18	=18	=18	=18	=18	=18	=18
1r	.	1A-	p	[1c-	p	(2cc-\	p
.	.	.	.	.	.	4.d/	.
.	.	.	.	.	.	8e-/)	.
=19	=19	=19	=19	=19	=19	=19	=19
1r	.	1A-	.	1c-]	.	(4.e-/	.
.	.	.	.	.	.	8f-/)	.
.	.	.	.	.	.	(4.f-/	.
.	.	.	.	.	.	8fn/)	.
=20	=20	=20	=20	=20	=20	=20	=20
1r	.	1B-	.	1d-	.	(4.f/	.
.	.	.	.	.	.	8g-/)	.
.	.	.	.	.	.	(4.g-/	.
.	.	.	.	.	.	8gn/)	.
=21	=21	=21	=21	=21	=21	=21	=21
(2AA-/	p	(4.B-/	.	(4.d-/	.	(4.g/	.
.	.	8c-/)	.	8e-/)	.	8a-/)	.
4.DD/	.	(4.c-/	.	(4.f/	.	(4.a-/	.
8EE-/)	.	8cn/)	.	8g-/)	.	8an/)	.
=22	=22	=22	=22	=22	=22	=22	=22
(2E-\	.	(4.c\	.	(4.g-/	.	(4.an/	.
.	.	8d-\)	.	8gn/)	.	8b-/)	.
4.GG/	.	(4.f-\	.	(4d-/	.	(4.b-\	.
.	.	.	.	4c-/)	.	.	.
8AA-/)	.	8e-\)	.	.	.	8cc-\)	.
=23	=23	=23	=23	=23	=23	=23	=23
(2G-\	.	4r	.	2e-/	.	(4.cc-\	.
.	.	(4G-/	.	.	.	.	.
.	.	.	.	.	.	8ccn\)	.
4.AAn/	.	[2Gn/)	.	[2en/	.	[2dd-\	.
8BB-/)	.	.	.	.	.	.	.
=24	=24	=24	=24	=24	=24	=24	=24
2BB-/	.	(4.G/]	.	(4.e/]	.	(4.dd-\]	.
.	.	8A-/)	.	8f/)	.	8ddn\)	.
(4.BB-/	.	(4.A-/	.	[4.B-/ 4.f/	.	(4.dd\	.
8E-\)	.	8G/)	.	8B-/] 8e-/	.	8ee-\)	.
=25	=25	=25	=25	=25	=25	=25	=25
*met(C)	*met(C)	*met(C)	*met(C)	*met(C)	*met(C)	*met(C)	*met(C)
*M4/4	*M4/4	*M4/4	*M4/4	*M4/4	*M4/4	*M4/4	*M4/4
*MM152	*MM152	*MM152	*MM152	*MM152	*MM152	*MM152	*MM152
4EE-/	f	4E-/ 4G/	f	4B-/ 4e-/	f	4G/ 4e-/ 4ee-/	.
4r	.	4r	.	4r	.	4r	.
4E-'\	.	4G'/	.	4B-'/	.	4e-'/	.
4E-'\	.	4G'/	.	4B-'/	.	4g'/	.
=26	=26	=26	=26	=26	=26	=26	=26
4D'\	.	4F'/	.	4B-'/	.	4b-'/	.
4r	.	4r	.	4r	.	4r	.
2r	.	2r	.	8r	.	2r	.
.	.	.	.	(8B-/L	p	.	.
.	.	.	.	8c/	.	.	.
.	.	.	.	8d/J	.	.	.
=27	=27	=27	=27	=27	=27	=27	=27
1r	.	1r	.	8e-/L	.	2r	.
.	.	.	.	8d/	.	.	.
.	.	.	.	8e-/	.	.	.
.	.	.	.	8g/J	.	.	.
.	.	.	.	8f/L	.	[2bb-\	p
.	.	.	.	8e-/	.	.	.
.	.	.	.	8f/	.	.	.
.	.	.	.	8a-/J	.	.	.
=28	=28	=28	=28	=28	=28	=28	=28
[1EE-	p	(2E-/	p	8g/L	.	(4bb-\]	.
.	.	.	.	8f/	.	.	.
.	.	.	.	8g/	.	8gg\L	.
.	.	.	.	8b-/J	.	8aa-\J	.
.	.	2G/	.	8e-/L	.	4bb-\	.
.	.	.	.	8d/	.	.	.
.	.	.	.	8e-/	.	4dd-\)	.
.	.	.	.	8b-/J	.	.	.
=29	=29	=29	=29	=29	=29	=29	=29
1EE-_	.	2A-/	.	8e-/L	.	2cc\	.
.	.	.	.	8d/	.	.	.
.	.	.	.	8e-/	.	.	.
.	.	.	.	8cc/J	.	.	.
.	.	2c\	.	8e-/L	.	4.aa-\	.
.	.	.	.	8d/	.	.	.
.	.	.	.	8e-/	.	.	.
.	.	.	.	8a-/J	.	8gg\	.
=30	=30	=30	=30	=30	=30	=30	=30
1EE-_	.	2d\	.	8f/L	.	4.ff\	.
.	.	.	.	8en/	.	.	.
.	.	.	.	8f/	.	.	.
.	.	.	.	8a-/J	.	8ccc\	.
.	.	2B-/)	.	8d/L	.	4.bb-\	.
.	.	.	.	8c#/	.	.	.
.	.	.	.	8d/	.	.	.
.	.	.	.	8f/J	.	8aa-\	.
=31	=31	=31	=31	=31	=31	=31	=31
2EE-/_	.	4e-\	.	8B-/L	.	(4ff#\	.
.	.	.	.	8An/	.	.	.
.	.	4r	.	8B-/	.	4gg\)	.
.	.	.	.	8e-/J	.	.	.
8EE-/L]	.	[2B-/	.	(8g/L)	.	2r	.
(8E-/	.	.	.	8g/	.	.	.
8C/	.	.	.	8e-/	.	.	.
8GG/J)	.	.	.	8B-/J)	.	.	.
=32	=32	=32	=32	=32	=32	=32	=32
(2EE-/	.	4B-/]	.	(4G/	.	4r	.
.	.	(8G/L	.	2e-/)	.	(2gg\	.
.	.	8A-/J	.	.	.	.	.
2GG/)	.	4B-/	.	.	.	.	.
.	.	4D-/)	.	[4e-/	.	8aa-\L	.
.	.	.	.	.	.	8bb-\J)	.
=33	=33	=33	=33	=33	=33	=33	=33
(2AA-/	.	2C/	.	2e-/]	.	[1ccc	.
2FF/)	.	4.A-/	.	[2ee-\	.	.	.
.	.	8G/	.	.	.	.	.
=34	=34	=34	=34	=34	=34	=34	=34
2BB-/	.	4.F/	.	2ee-\]	.	2ccc\]	.
.	.	8c/	.	.	.	.	.
2BB-/	.	(8B-/L	.	2ff\	.	2ddd\	.
.	.	8A-/)	.	.	.	.	.
.	.	8G'/	.	.	.	.	.
.	.	8F'/J	.	.	.	.	.
=35	=35	=35	=35	=35	=35	=35	=35
4EE-/	p	4E-/	p	8gg\L	p	8eee-\L	p
.	.	.	.	8ee-\ 8gg\	.	8bb-\	.
4r	.	4r	.	8ee-\ 8gg\	.	8bb-\	.
.	.	.	.	8ee-\ 8gg\J	.	8bb-\J	.
2r	.	4E-/	.	8ee-\ 8gg\L	.	8bb-\L	.
.	.	.	.	8ee-\ 8gg\	.	8bb-\	.
.	.	4G/	.	8ee-\ 8gg\	.	8bb-\	.
.	.	.	.	8ee-\ 8gg\J	.	8bb-\J	.
=36	=36	=36	=36	=36	=36	=36	=36
4BB-/	.	2r	.	8dd\ 8ff\L	.	8bb-\L	.
.	.	.	.	8dd\ 8ff\	.	8bb-\	.
4D/	.	.	.	8dd\ 8ff\	.	8bb-\	.
.	.	.	.	8dd\ 8ff\J	.	8bb-\J	.
2r	.	4F/	.	8ff\L	.	8cc\ 8aa-\L	.
.	.	.	.	8ff\	.	8cc\ 8aa-\	.
.	.	4A-/	.	8ff\	.	8cc\ 8aa-\	.
.	.	.	.	8ff\J	.	8cc\ 8aa-\J	.
=37	=37	=37	=37	=37	=37	=37	=37
4C/	.	2r	.	8ee-\L	.	8cc\ 8gg\L	.
.	.	.	.	8ee-\	.	8cc\ 8gg\	.
4E-\	.	.	.	8ee-\	.	8cc\ 8gg\	.
.	.	.	.	8ee-\J	.	8cc\ 8gg\J	.
2r	.	4A-/	.	8ee-\L	.	8cc\ 8ff\L	.
.	.	.	.	8ee-\	.	8cc\ 8ff\	.
.	.	4c/	.	8ee-\	.	8cc\ 8ff\	.
.	.	.	.	8ee-\J	.	8cc\ 8ff\J	.
=38	=38	=38	=38	=38	=38	=38	=38
4r	.	4e-\	.	8ee-\L	.	8b-\ 8gg\L	.
.	.	.	.	8ee-\	.	8b-\ 8gg\	.
4E-\	.	4r	.	8ee-\	.	8b-\ 8gg\	.
.	.	.	.	8ee-\J	.	8b-\ 8gg\J	.
4r	.	4B-/	.	8cc\ 8ff\L	.	8b-\ 8aa-\L	.
.	.	.	.	8cc\ 8ff\	.	8b-\ 8aa-\	.
4BB-/	.	4r	.	8dd\ 8ff\	.	8b-\ 8aa-\	.
.	.	.	.	8dd\ 8ff\J	.	8b-\ 8aa-\J	.
=39	=39	=39	=39	=39	=39	=39	=39
4EE-/	.	8E-/	.	8ee-\L	.	4b-\ 4gg\	.
.	.	8e-\L	.	8g\	.	.	.
4r	.	8e-\	.	8g\	.	4r	.
.	.	8e-\J	.	8g\J	.	.	.
8e-\L	.	8g\L	.	2r	.	4ee-\	.
8e-\	.	8g\	.	.	.	.	.
8e-\	.	8g\	.	.	.	4gg\	.
8e-\J	.	8g\J	.	.	.	.	.
=40	=40	=40	=40	=40	=40	=40	=40
8d-\L	.	8f\L	.	4b-\	.	2r	.
8d-\	.	8f\	.	.	.	.	.
8d-\	.	8f\	.	4dd-\	.	.	.
8d-\J	.	8f\J	.	.	.	.	.
*clefC4	*clefG2	*	*	*	*	*	*
8a-\L	.	8c\ 8f\L	.	2r	.	4ff\	.
8a-\	.	8c\ 8f\	.	.	.	.	.
8a-\	.	8c\ 8f\	.	.	.	4aa-\	.
8a-\J	.	8c\ 8f\J	.	.	.	.	.
=41	=41	=41	=41	=41	=41	=41	=41
8g\L	.	8c\ 8e-\L	.	4cc\	.	2r	.
8g\	.	8c\ 8e-\	.	.	.	.	.
8g\	.	8B-\ 8e-\	.	4ee-\	.	.	.
8g\J	.	8c\ 8e-\J	.	.	.	.	.
*clefF4	*clefF4	*	*	*	*	*	*
8A-\L	.	8c\ 8f\L	.	2r	.	4aa-\	.
8A-\	.	8c\ 8f\	.	.	.	.	.
8A-\	.	8c\ 8f\	.	.	.	4ccc\	.
8A-\J	.	8c\ 8f\J	.	.	.	.	.
=42	=42	=42	=42	=42	=42	=42	=42
8G\L	.	8B-\ 8e-\L	.	4r	.	4eee-\	.
8G\	.	8B-\ 8e-\	.	.	.	.	.
8G\	.	8B-\ 8e-\	.	4ee-\	.	4r	.
8G\J	.	8B-\ 8e-\J	.	.	.	.	.
8G-\L	.	8B-\ 8e-\L	.	4r	.	4bb-\	.
8G-\	.	8B-\ 8e-\	.	.	.	.	.
8G-\	.	8B-\ 8e-\	.	4b-\	.	4r	.
8G-\J	.	8B-\ 8e-\J	.	.	.	.	.
=43	=43	=43	=43	=43	=43	=43	=43
4FF'/	f	4An'/ 4f'/	f	4r	.	4ff\ 4fff\	f
4r	.	4r	.	4an'\ 4ff'\	f	4r	.
2r	.	[2g-\	p	2r	.	2r	.
=44	=44	=44	=44	=44	=44	=44	=44
(2e-\	p	(2g-\]	.	(2an/	p	(2cc\	p
2en\)	.	2gn\)	.	2b-/)	.	2dd-\)	.
=45	=45	=45	=45	=45	=45	=45	=45
4FF'/	f	4F'/ 4An'/	f	4an'/	f	4ff'\ 4fff'\	f
4r	.	4r	.	4a'\ 4ff'\	.	4r	.
2r	.	[2g-\	p	2r	.	2r	.
=46	=46	=46	=46	=46	=46	=46	=46
(1e-	p	(1g-]	.	(1an	p	(1cc	p
=47	=47	=47	=47	=47	=47	=47	=47
1en)	.	1gn)	.	1b-)	.	1dd-)	.
=48	=48	=48	=48	=48	=48	=48	=48
[2e-\	>	[2f\ [2an\	>	[2cc\	>	[2gg\	>
8e-\L]	.	8f\] 8a\L]	.	8cc\L]	.	(8gg\L]	.
8e-\	p	8f'\ 8a'\	.	8cc'\	.	8ff\)	.
8e-'\	.	8f'\	p	8an'\	p	8cc'\	p
8d'\J	.	8f'\J	.	8b-'\J	.	8dd'\J	.
=49	=49	=49	=49	=49	=49	=49	=49
8c\L	.	8e-/L	.	8cc/L	.	8ee-/L	.
8F\	.	8c/	.	8e-/	.	8g/	.
8F\	.	8c/	.	8e-/	.	8an/	.
8F\J	.	8F/J	.	8e-/J	.	8f/J	.
8BB-/L	.	8F/L	.	8d/L	.	8b-/L	.
8BB-/	.	8F/	.	8d/	.	8f/	.
8FF/	.	8F/	.	8An/	.	8cc/	.
8FF/J	.	8F/J	.	8A/J	.	8f/J	.
=50	=50	=50	=50	=50	=50	=50	=50
4BB-/	.	8B-/	.	4f/	.	4dd\	.
.	.	(4f\	.	.	.	.	.
4r	.	.	.	4r	.	4r	.
.	.	8f#\	.	.	.	.	.
2r	.	8g\L	.	8r	.	4r	.
.	.	8fn\)	.	(4an/	.	.	.
.	.	8d\	.	.	.	8r	.
.	.	8d'\J	.	8bn/	.	[8gg\	.
=51	=51	=51	=51	=51	=51	=51	=51
8r	.	8e-'/L	.	8cc'/L)	.	(8gg\]	.
4EE-/	.	8G'/	.	8g'/	.	4ff\)	.
.	.	8An'/	.	8an'/	.	.	.
8EE-/	.	8F'/J	.	8f'/J	.	8ccc'\	.
8DD'/L	.	8B-'/L	.	8b-'/L	.	8ff'\L	.
8DD'/	.	8F'/	.	8f'/	.	8ddd'\	.
8AAn'/	.	8c'/	.	8cc'/	.	8ff'\	.
8AA'/J	.	8F'/J	.	8f'/J	.	8eee-'\J	.
=52	=52	=52	=52	=52	=52	=52	=52
4BB-/	p	[2B-/	p	8dd\L	p	8ddd\L	p
.	.	.	.	8dd\	.	8ff\	.
4r	.	.	.	8dd\	.	8ff\	.
.	.	.	.	8dd\J	.	8ff\J	.
2r	.	(16B-/LL]	.	4dd\	.	4ff\	.
.	.	16An/	.	.	.	.	.
.	.	16G/	.	.	.	.	.
.	.	16F/JJ	.	.	.	.	.
.	.	16G/LL	.	4r	.	4r	.
.	.	16A/	.	.	.	.	.
.	.	16B-/	.	.	.	.	.
.	.	16c/JJ)	.	.	.	.	.
*clefC4	*clefG2	*	*	*	*	*	*
=53	=53	=53	=53	=53	=53	=53	=53
[2B-/	.	[2d\	.	8r	.	8r	.
.	.	.	.	8dd\L	.	8bb-\L	.
.	.	.	.	8dd\	.	8bb-\	.
.	.	.	.	8dd\J	.	8bb-\J	.
(16B-/LL]	.	(16d\LL]	.	4dd\	.	4bb-\	.
16An/	.	16c\	.	.	.	.	.
16G/	.	16B-\	.	.	.	.	.
16F/JJ	.	16An\JJ	.	.	.	.	.
16G/LL	.	16B-\LL	.	4r	.	4r	.
16A/	.	16c\	.	.	.	.	.
16B-/	.	16d\	.	.	.	.	.
16c/JJ)	.	16e-\JJ)	.	.	.	.	.
=54	=54	=54	=54	=54	=54	=54	=54
(16d\LL	.	(16f\LL	.	[2b-/	.	2r	.
16e-\	.	16g\	.	.	.	.	.
16f\	.	16an\	.	.	.	.	.
16g\JJ	.	16b-\JJ	.	.	.	.	.
16f\LL	.	16a\LL	.	.	.	.	.
16e-\	.	16g\	.	.	.	.	.
16d\	.	16f\	.	.	.	.	.
16c\JJ	.	16e-\JJ)	.	.	.	.	.
8B-\)	.	(16d\LL	.	(16b-/LL]	.	[2bb-\	.
.	.	16e-\	.	16an/	.	.	.
8r	.	16f\	.	16g/	.	.	.
.	.	16g\JJ	.	16f/JJ	.	.	.
4r	.	16f\LL	.	16g/LL	.	.	.
.	.	16e-\	.	16a/	.	.	.
.	.	16d\	.	16b-/	.	.	.
.	.	16c\JJ)	.	16cc/JJ)	.	.	.
=55	=55	=55	=55	=55	=55	=55	=55
1r	.	8B-/	.	(16dd\LL	.	(16bb-\LL]	.
.	.	.	.	16ee-\	.	16aan\	.
.	.	8r	.	16ff\	.	16gg\	.
.	.	.	.	16gg\JJ	.	16ff\JJ	.
.	.	4r	.	16ff\LL	.	16gg\LL	.
.	.	.	.	16ee-\	.	16aa\	.
.	.	.	.	16dd\	.	16bb-\	.
.	.	.	.	16cc\JJ	.	16ccc\JJ)	.
.	.	(16F/LL	.	8b-\)	.	(16ddd\LL	.
.	.	16G/	.	.	.	16ccc\	.
.	.	16An/	.	8r	.	16bb-\	.
.	.	16B-/JJ	.	.	.	16aa\JJ	.
.	.	16A/LL	.	4r	.	16bb-\LL	.
.	.	16G/	.	.	.	16ccc\	.
.	.	16F/	.	.	.	16ddd\	.
.	.	16E-/JJ)	.	.	.	16eee-\JJ)	.
*clefF4	*clefF4	*	*	*	*	*	*
=56	=56	=56	=56	=56	=56	=56	=56
(16D\LL	.	8D/	.	1r	.	(4fff'\	.
16E-\	.	.	.	.	.	.	.
16F\	.	8r	.	.	.	.	.
16G\JJ	.	.	.	.	.	.	.
16F\LL	.	4r	.	.	.	4ggg'\	.
16E-\	.	.	.	.	.	.	.
16D\	.	.	.	.	.	.	.
16C\JJ	.	.	.	.	.	.	.
8BB-/L)	.	2r	.	.	.	4aaan'\	.
8AAn'/	.	.	.	.	.	.	.
8GG'/	.	.	.	.	.	4bbb-'\)	.
8FF'/J	.	.	.	.	.	.	.
=57	=57	=57	=57	=57	=57	=57	=57
(2.EEn/	.	4r	.	4r	.	(4bbb-\	.
.	.	(2G/	.	(2c/	.	2b-\)	.
4EE-/)	.	4G-/)	.	4An/)	.	(12cc\L	.
.	.	.	.	.	.	12dd\	.
.	.	.	.	.	.	12ee-\J)	.
=58	=58	=58	=58	=58	=58	=58	=58
4DD/	p	4F/	p	4f/	p	(2.ff\	p
4r	.	4r	.	4r	.	.	.
(16D\LL	.	2r	.	2r	.	.	.
16E-\	.	.	.	.	.	.	.
16F\	.	.	.	.	.	.	.
16G\JJ	.	.	.	.	.	.	.
16F\LL	.	.	.	.	.	4aa-\	.
16E-\	.	.	.	.	.	.	.
16D\	.	.	.	.	.	.	.
16C\JJ	.	.	.	.	.	.	.
=59	=59	=59	=59	=59	=59	=59	=59
8BBn/)	.	(16Bn/LL	.	(2.f/	.	4gg\	.
.	.	16c/	.	.	.	.	.
8r	.	16d/	.	.	.	.	.
.	.	16e-/JJ	.	.	.	.	.
4r	.	16d/LL	.	.	.	4ddd\	.
.	.	16c/	.	.	.	.	.
.	.	16B/	.	.	.	.	.
.	.	16An/JJ	.	.	.	.	.
2r	.	8G/)	.	.	.	4dd\	.
.	.	8r	.	.	.	.	.
.	.	4r	.	4bn/	.	4gg\)	.
=60	=60	=60	=60	=60	=60	=60	=60
2r	.	1r	.	4g/	.	(4ff\	.
.	.	.	.	4cc\	.	2ee-\	.
(16C/LL	.	.	.	4c/)	.	.	.
16D/	.	.	.	.	.	.	.
16E-/	.	.	.	.	.	.	.
16F/JJ	.	.	.	.	.	.	.
16E-/LL	.	.	.	4r	.	4gg\	.
16D/	.	.	.	.	.	.	.
16C/	.	.	.	.	.	.	.
16BB-/JJ	.	.	.	.	.	.	.
=61	=61	=61	=61	=61	=61	=61	=61
8AAn/)	.	(16An/LL	.	8r	.	4ff\	.
.	.	16B-/	.	.	.	.	.
8r	.	16c/	.	(8g/L	.	.	.
.	.	16d/JJ	.	.	.	.	.
4r	.	16c/LL	.	8f/	.	4ccc\	.
.	.	16B-/	.	.	.	.	.
.	.	16A/	.	[8cc/J)	.	.	.
.	.	16G/JJ	.	.	.	.	.
(16AA\LL	.	8F/)	.	8cc/L]	.	4cc\	.
16BB-\	.	.	.	.	.	.	.
16C\	.	8r	.	(8e-/	.	.	.
16D\JJ	.	.	.	.	.	.	.
16E-\LL	.	4r	.	8c/)	.	4ff\)	.
16F\	.	.	.	.	.	.	.
16G\	.	.	.	8f/J	.	.	.
16An\JJ)	.	.	.	.	.	.	.
=62	=62	=62	=62	=62	=62	=62	=62
2.B-\	.	4r	.	(16B-/LL	.	(4ee-\	.
.	.	.	.	16c/	.	.	.
.	.	.	.	16B-/	.	.	.
.	.	.	.	16c/JJ	.	.	.
.	.	(16B-\LL	.	16d/LL	.	2dd\)	.
.	.	16c\	.	16e-/	.	.	.
.	.	16B-\	.	16d/	.	.	.
.	.	16c\JJ	.	16e-/JJ	.	.	.
.	.	16d\LL	.	16f/LL	.	.	.
.	.	16e-\	.	16g/	.	.	.
.	.	16d\	.	16f/	.	.	.
.	.	16e-\JJ	.	16g/JJ	.	.	.
4B-\	.	8f'\L)	.	8a-'/L)	.	4dd\ 4ddd\	.
.	.	8f'\J	.	8a-'/J	.	.	.
=63	=63	=63	=63	=63	=63	=63	=63
2An\	.	2f#\	.	2an/	.	[1dd [1ddd	.
2G\	.	2fn\	.	[2bn\	.	.	.
=64	=64	=64	=64	=64	=64	=64	=64
4C/	.	4e-\	.	8b\L]	.	8dd\] (8ddd\L]	.
.	.	.	.	8cc\	.	8ccc\	.
(2E-\	.	(2c\	.	(8dd'\	.	(8ddd'\)	.
.	.	.	.	8ee-'\J)	.	8eee-'\J)	.
.	.	.	.	(4g/	.	(4gg\	.
4En\)	.	4d-\)	.	4an/)	.	4aan\)	.
=65	=65	=65	=65	=65	=65	=65	=65
2F\	.	8dn'\L	.	2b-\	.	2bb-\	.
.	.	(8d\	.	.	.	.	.
.	.	8e-\	.	.	.	.	.
.	.	8f\J)	.	.	.	.	.
2FF/	.	(8e-\L	.	4.an/	.	4.ccc\	.
.	.	8c\)	.	.	.	.	.
.	.	8An'\	.	.	.	.	.
.	.	8E-'\J	.	8a/	.	8f/	.
=66	=66	=66	=66	=66	=66	=66	=66
2.BB-/	p	4D/	p	4b-/	p	(16B-/LL	p
.	.	.	.	.	.	16c/	.
.	.	.	.	.	.	16B-/	.
.	.	.	.	.	.	16c/JJ	.
.	.	2D/ 2d/	.	(16A-/LL	.	16d/LL	.
.	.	.	.	16c/	.	16e-/	.
.	.	.	.	16B-/	.	16d/	.
.	.	.	.	16c/JJ	.	16e-/JJ	.
.	.	.	.	16d/LL	.	16f/LL	.
.	.	.	.	16e-/	.	16g/	.
.	.	.	.	16d/	.	16f/	.
.	.	.	.	16e-/JJ	.	16g/JJ	.
4BB-/	.	4D/ 4d/	.	8f'/L	.	8a-'/L)	.
.	.	.	.	8f'/J)	.	8a-'/J	.
=67	=67	=67	=67	=67	=67	=67	=67
2AAn/	.	[1D [1d	.	2f#/	.	2an/	.
2GG/	.	.	.	2fn/	.	2bn/	.
=68	=68	=68	=68	=68	=68	=68	=68
8CC/L	.	8D/] 8d/L]	.	4e-/	.	4cc\	.
(8C/	.	(8c/	.	.	.	.	.
8BBn/	.	8Bn/	.	4cc\	.	4ee-\	.
8C/J	.	8c/J	.	.	.	.	.
8D/L	.	8d/L	.	4r	.	4r	.
8E-/	.	8e-/	.	.	.	.	.
8GG/	.	8G/	.	4ee-\	.	4ccc\	.
8C/J)	.	8c/J)	.	.	.	.	.
=69	=69	=69	=69	=69	=69	=69	=69
(8C/L	.	(8c/L	.	4r	.	4r	.
8BB-/	.	8B-/	.	.	.	.	.
8FF/	.	8F/	.	4b-\	.	4ddd\	.
8GG/J	.	8G/J	.	.	.	.	.
8FF/L	.	8F/L	.	4r	.	4r	.
8GG/)	.	8G/)	.	.	.	.	.
8FF'/	.	8F'/	.	4an/	.	4fff\	.
8FF'/J	.	8F'/J	.	.	.	.	.
=70	=70	=70	=70	=70	=70	=70	=70
[2BB-/	f	[2F/	f	[2b-\	f	[2dd\	f
8BB-/L]	.	8F/L]	.	8b-\L]	.	8dd\L]	.
8AAn/	.	8f\	.	8cc\	.	8ff\	.
8BB-/	.	8F/	.	8b-\	.	8dd\	.
8BB-/J	.	8F/J	.	8b-\J	.	8dd\J	.
=71	=71	=71	=71	=71	=71	=71	=71
8BB-/L	.	8F/L	.	8b-\L	.	8dd\L	.
8AAn/	.	8f\	.	8cc\	.	8ff\	.
8BB-/	.	8F/	.	8b-\	.	8dd\	.
8BB-/J	.	8F/J	.	8b-\J	.	8dd\J	.
8BB-/L	.	8F/L	.	8b-\L	.	8dd\L	.
8FF/	.	8f\	.	8cc\	.	8ee-\	.
8FF/	.	8F/	.	8an\	.	8cc\	.
8FF/J	.	8F/J	.	8a\J	.	8cc\J	.
=72	=72	=72	=72	=72	=72	=72	=72
(8FF/L	.	(8F/L	.	(8an/L	.	(8cc\L	.
8BB-/J)	.	8B-/J)	.	8b-/J)	.	8dd\J)	.
4BB-/	.	4B-/	.	4b-/	.	4dd\	.
8r	.	8r	.	8r	.	8r	.
8FF/L	.	8F/L	.	8c/L	.	8e-/L	.
8FF/	.	8F/	.	8An/	.	8c/	.
8FF/J	.	8F/J	.	8A/J	.	8c/J	.
=73	=73	=73	=73	=73	=73	=73	=73
(8FF/L	p	4F/	p	(8An/L	p	(8c/L	p
8BB-/J)	.	.	.	8B-/J)	.	8d/J)	.
4BB-/	.	4F/	.	4B-/	.	4d/	.
8r	.	8r	.	8r	.	8r	.
8FF/L	.	8F/L	.	8c/L	.	8e-/L	.
8FF/	.	8F/	.	8An/	.	8c/	.
8BB-/J	.	8F/J	.	8B-/J	.	8d/J	.
=74	=74	=74	=74	=74	=74	=74	=74
4BB-/	.	4F/	.	4B-/	.	4d/	.
4r	.	4r	.	4r	.	4r	.
4BB-/	.	4F/	.	4B-/	.	4d/	.
4r	.	4r	.	4r	.	4r	.
=75	=75	=75	=75	=75	=75	=75	=75
(4BB-'/	.	(4F'/	.	(4B-'/	.	(4d'/	.
4BB-'/	.	4F'/	.	4B-'/	.	4d'/	.
4BB-'/	.	4F'/	.	4B-'/	.	4d'/	.
4BB-'/)	.	4F'/)	.	4B-'/)	.	4d'/)	.
=76	=76	=76	=76	=76	=76	=76	=76
1BB-	pp	1F	pp	1B-	pp	1d	pp
=77	=77	=77	=77	=77	=77	=77	=77
1BB-	.	1F	.	1B-	.	1d	.
=78:|!	=78:|!	=78:|!	=78:|!	=78:|!	=78:|!	=78:|!	=78:|!
*>B	*>B	*>B	*>B	*>B	*>B	*>B	*>B
4GG/	f	4G\ 4g\	f	4G/ 4d/ 4bn/	f	4G/ 4d/ 4bn/ 4gg/	f
4r	.	4r	.	4r	.	4r	.
4G'\	.	4d'\	.	4Bn'/	.	4g'/	.
4G'\	.	4Bn'/	.	4g'/	.	4b'/	.
=79	=79	=79	=79	=79	=79	=79	=79
4F#'\	.	4An'/	.	4d'/	.	4dd'\	.
4r	.	4r	.	4r	.	4r	.
2r	.	8r	.	2r	.	2r	.
.	.	(8D/L	pp	.	.	.	.
.	.	8En/	.	.	.	.	.
.	.	8F#/J	.	.	.	.	.
=80	=80	=80	=80	=80	=80	=80	=80
1r	.	8G/L	.	2r	.	1r	.
.	.	8F#/	.	.	.	.	.
.	.	8G/	.	.	.	.	.
.	.	8Bn/J	.	.	.	.	.
.	.	8An/L	.	[2dd\	p	.	.
.	.	8G/	.	.	.	.	.
.	.	8A/	.	.	.	.	.
.	.	8c/J	.	.	.	.	.
=81	=81	=81	=81	=81	=81	=81	=81
4G\	p	8Bn/L	.	(4dd\]	.	2r	.
.	.	8An/	.	.	.	.	.
4r	.	8B/	.	8bn\L	.	.	.
.	.	8d/J	.	8cc\J	.	.	.
4BBn'/	.	8G/L	.	4dd\	.	[2gg\	p
.	.	8d/	.	.	.	.	.
4G'\	.	8B/	.	4f/)	.	.	.
.	.	8d/J)	.	.	.	.	.
=82	=82	=82	=82	=82	=82	=82	=82
4C'/	.	4G/	.	4e-/	.	(4gg\]	.
4r	.	4r	.	4r	.	8ee-\L	.
.	.	.	.	.	.	8ff\J	.
8r	.	2r	.	2r	.	4gg\	.
(8GG/L	.	.	.	.	.	.	.
8AAn/	.	.	.	.	.	4cc\)	.
8BBn/J	.	.	.	.	.	.	.
=83	=83	=83	=83	=83	=83	=83	=83
8C\L	.	1r	.	2r	.	1r	.
8BBn\	.	.	.	.	.	.	.
8C\	.	.	.	.	.	.	.
8E-\J	.	.	.	.	.	.	.
8D\L	.	.	.	2b-/	.	.	.
8C\	.	.	.	.	.	.	.
8D\	.	.	.	.	.	.	.
8F\J)	.	.	.	.	.	.	.
=84	=84	=84	=84	=84	=84	=84	=84
[1En [1G	.	(8G/L	.	(4b-/	.	2r	.
.	.	8F#/	.	.	.	.	.
.	.	8G/	.	8g/L	.	.	.
.	.	8B-/J)	.	8a-/J	.	.	.
.	.	(8G/L	.	4b-/	.	(4bb-\	p
.	.	8F#/	.	.	.	.	.
.	.	8G/	.	4d-/)	.	8gg\L	.
.	.	8B-/J)	.	.	.	8aa-\J	.
=85	=85	=85	=85	=85	=85	=85	=85
1E_ 1G_	.	(8G/L	.	(4b-/	.	4bb-\	.
.	.	8F#/	.	.	.	.	.
.	.	8G/	.	8g/L	.	4dd-\)	.
.	.	8B-/J)	.	8a-/J	.	.	.
.	.	(8G/L	.	4b-/	.	(4bb-\	.
.	.	8F#/	.	.	.	.	.
.	.	8G/	.	4d-/)	.	8gg\L	.
.	.	8B-/J)	.	.	.	8aa-\J	.
=86	=86	=86	=86	=86	=86	=86	=86
4E\] 4G\]	.	4G/	.	4b-/	.	4bb-\)	.
(8GG'/L	.	(8G'/L	.	4r	.	4r	.
8AA-'/J)	.	8A-'/J)	.	.	.	.	.
4BB-'/	.	4B-/	.	4r	.	4r	.
4r	.	4r	.	(8G'/L	.	(8g'/L	.
.	.	.	.	8A-'/J	.	8a-'/J)	.
=87	=87	=87	=87	=87	=87	=87	=87
4r	.	4r	.	4B-/)	.	4b-\	.
8G'\L	.	(8g'\L	.	4r	.	4r	.
8A-'\J	.	8a-'\J)	.	.	.	.	.
4B-\	.	4b-'\	.	4r	.	4r	.
4r	.	4r	.	(8g'/L	.	(8gg'\L	.
.	.	.	.	8a-'/J)	.	8aa-'\J)	.
=88	=88	=88	=88	=88	=88	=88	=88
2r	.	1D- 1d-	.	4b-/	.	4bb-\	.
.	.	.	.	(8g'/L	.	(8gg'\L	.
.	.	.	.	8a-'/J)	.	8aa-'\J)	.
*clefC4	*clefG2	*	*	*	*	*	*
[2g\	.	.	.	4b-/	.	4bb-\	.
.	.	.	.	(8g/L	.	(8gg'\L	.
.	.	.	.	8a-'/J)	.	8aa-'\J)	.
=89	=89	=89	=89	=89	=89	=89	=89
4g\]	.	2C/ 2c/	.	4b-/	.	4bb-\	.
(8en\L	.	.	.	8g'/L	.	8gg'\L	.
8f\J	.	.	.	8an'/J	.	8aan'\J	.
4g\	.	2C/ 2c/	.	8b-'\L	.	8bb-'\L	.
.	.	.	.	8cc'\	.	8een'\	.
4B-\)	.	.	.	8ddn'\	.	8ff'\	.
.	.	.	.	8een'\J	.	8gg'\J	.
=90	=90	=90	=90	=90	=90	=90	=90
2An/	.	2C/ 2c/	.	8ff'\L	.	8aan\L	.
.	.	.	.	8g'\	.	8bbn\	.
.	.	.	.	8an'\	.	8ccc\	.
.	.	.	.	8bn'\J	.	8dddn\J	.
4.f\	.	2C/ 2c/	.	8cc'\L	.	8eeen\L	.
.	.	.	.	8dd'\	.	8fff\	.
.	.	.	.	8een'\	.	8gg\	.
8en\	.	.	.	8ff'\J	.	8aan\J	.
=91	=91	=91	=91	=91	=91	=91	=91
4.d\	.	2C/ 2c/	.	8gg'\L	.	8bbn\L	.
.	.	.	.	8aan'\	.	8ccc\	.
.	.	.	.	8bn'\	.	8ddd\	.
8an\	.	.	.	8cc'\J	.	8eeen\J	.
4.g\	.	2C/ 2c/	.	8dd'\L	.	8fff\L	.
.	.	.	.	8een'\	.	8ggg\	.
.	.	.	.	8ff'\	.	8aaan\	.
8f\	.	.	.	8gg'\J	.	8bbbn\J	.
=92	=92	=92	=92	=92	=92	=92	=92
(4d#\	.	2C/ 2c/	.	8aan'\L	.	4cccc\	.
.	.	.	.	8bbn'\	.	.	.
4en\)	.	.	.	8ccc'\	.	4r	.
.	.	.	.	8ddd'\J	.	.	.
*clefF4	*clefF4	*	*	*	*	*	*
[2CC/	ff	2En/	ff	8eeen'\L	.	[2gg\	ff
.	.	.	.	8fff'\	.	.	.
.	.	.	.	8ggg'\J	.	.	.
.	.	.	.	16b-\LL	ff	.	.
.	.	.	.	16b-\JJ	.	.	.
=93	=93	=93	=93	=93	=93	=93	=93
4CC/]	.	16En/LL	.	16b-/LL	.	(4gg\]	.
.	.	16E/	.	16B-/	.	.	.
.	.	16E/	.	16B-/	.	.	.
.	.	16E/JJ	.	16B-/JJ	.	.	.
(4DD-/	.	16F/LL	.	16B-/LL	.	8een\L	.
.	.	16F/	.	16B-/	.	.	.
.	.	16F/	.	16B-/	.	8ff\J	.
.	.	16F/JJ	.	16B-/JJ	.	.	.
4CC/	.	16E/LL	.	16B-/LL	.	4gg\	.
.	.	16E/	.	16b-/	.	.	.
.	.	16E/	.	16g/	.	.	.
.	.	16E/JJ	.	16g/JJ	.	.	.
4EEn/)	.	16c/LL	.	16g/LL	.	4b-\)	.
.	.	16c/	.	16g/	.	.	.
.	.	16c/	.	16g/	.	.	.
.	.	16c/JJ	.	16g/JJ	.	.	.
=94	=94	=94	=94	=94	=94	=94	=94
(4FF/	.	16c\LL	.	16g/LL	.	2an/	.
.	.	16c\	.	16g/	.	.	.
.	.	16c\	.	16g/	.	.	.
.	.	16c\JJ	.	16g/JJ	.	.	.
4DDn/	.	16dn\LL	.	16f/LL	.	.	.
.	.	16d\	.	16f/	.	.	.
.	.	16d\	.	16f/	.	.	.
.	.	16d\JJ	.	16f/JJ	.	.	.
4GG/	.	16d\LL	.	16bn\LL	.	4.ff\	.
.	.	16d\	.	16b\	.	.	.
.	.	16d\	.	16b\	.	.	.
.	.	16d\JJ	.	16b\JJ	.	.	.
4AAn/)	.	16c\LL	.	16cc\LL	.	.	.
.	.	16c\	.	16cc\	.	.	.
.	.	16c\	.	16cc\	.	8een\	.
.	.	16c\JJ	.	16cc\JJ	.	.	.
=95	=95	=95	=95	=95	=95	=95	=95
(4GG/	.	16c\LL	.	16dd/LL	.	4.dd\	.
.	.	16c\	.	16d/	.	.	.
.	.	16c\	.	16d/	.	.	.
.	.	16c\JJ	.	16d/JJ	.	.	.
4F\	.	16c\LL	.	16d/LL	.	.	.
.	.	16c\	.	16d/	.	.	.
.	.	16c\	.	16d/	.	8aan\	.
.	.	16c\JJ	.	16d/JJ	.	.	.
4G\	.	16Bn\LL	.	16d/LL	.	4.gg\	.
.	.	16d\	.	16f/	.	.	.
.	.	16d\	.	16f/	.	.	.
.	.	16d\JJ	.	16f/JJ	.	.	.
4GG/)	.	16d\LL	.	16f/LL	.	.	.
.	.	16d\	.	16f/	.	.	.
.	.	16d\	.	16f/	.	8bbn\	.
.	.	16d\JJ	.	16f/JJ	.	.	.
=96	=96	=96	=96	=96	=96	=96	=96
4CC/	.	16C/LL	.	16en/LL	.	[1ccc	f
.	.	16C/	.	16e/	.	.	.
.	.	16En/	.	16c/	.	.	.
.	.	16E/JJ	.	16c/JJ	.	.	.
8r	.	16C/LL	f	16e/LL	f	.	.
.	.	16C/	.	16e/	.	.	.
*clefC4	*clefG2	*	*	*	*	*	*
8c\	.	16E/	.	16c/	.	.	.
.	.	16E/JJ	.	16c/JJ	.	.	.
4.Bn\	.	16D/LL	.	16f/LL	.	.	.
.	.	16D/	.	16f/	.	.	.
.	.	16F/	.	16c/	.	.	.
.	.	16F/JJ	.	16c/JJ	.	.	.
.	.	16D/LL	.	16f/LL	.	.	.
.	.	16D/	.	16f/	.	.	.
8An/	f	16F/	.	16c/	.	.	.
.	.	16F/JJ	.	16c/JJ	.	.	.
=97	=97	=97	=97	=97	=97	=97	=97
4.G/	.	16En/LL	.	16g/LL	.	4.ccc\]	.
.	.	16E/	.	16g/	.	.	.
.	.	16G/	.	16c/	.	.	.
.	.	16G/JJ	.	16c/JJ	.	.	.
.	.	16E/LL	.	16g/LL	.	.	.
.	.	16E/	.	16g/	.	.	.
8en\	.	16G/	.	16c/	.	(16cc\LL	.
.	.	16G/JJ	.	16c/JJ	.	(16b-\JJ)	.
4.f\	.	16F/LL	.	16an/LL	.	12an/L	.
.	.	16F/	.	16a/	.	.	.
.	.	.	.	.	.	12g/	.
.	.	16d/	.	16c/	.	.	.
.	.	.	.	.	.	12f/J	.
.	.	16d/JJ	.	16c/JJ	.	.	.
.	.	16F/LL	.	16a/LL	.	12en/L	.
.	.	16F/	.	16a/	.	.	.
.	.	.	.	.	.	12d/	.
8d\	.	16d/	.	16c/	.	.	.
.	.	.	.	.	.	12c/J)	.
.	.	16d/JJ	.	16c/JJ	.	.	.
=98	=98	=98	=98	=98	=98	=98	=98
[1g	.	16d/LL	.	16f/LL	.	4.Bn/	.
.	.	16d/	.	16f/	.	.	.
.	.	16G/	.	16Bn/	.	.	.
.	.	16G/JJ	.	16B/JJ	.	.	.
.	.	16d/LL	.	16f/LL	.	.	.
.	.	16d/	.	16f/	.	.	.
.	.	16G/	.	16B/	.	8een\	.
.	.	16G/JJ	.	16B/JJ	.	.	.
.	.	16d/LL	.	16f/LL	.	4.ff\	.
.	.	16d/	.	16f/	.	.	.
.	.	16G/	.	16B/	.	.	.
.	.	16G/JJ	.	16B/JJ	.	.	.
.	.	16d/LL	.	16f/LL	.	.	.
.	.	16d/	.	16f/	.	.	.
.	.	16G/	.	16B/	.	8dd\	.
.	.	16G/JJ	.	16B/JJ	.	.	.
=99	=99	=99	=99	=99	=99	=99	=99
1g]	.	16d\LL	.	16f/LL	.	4.bn\	.
.	.	16d\	.	16f/	.	.	.
.	.	16Bn\	.	16d/	.	.	.
.	.	16B\JJ	.	16d/JJ	.	.	.
.	.	16d/LL	.	16f\LL	.	.	.
.	.	16d/	.	16f\	.	.	.
.	.	16G/	.	16bn\	.	8ddd\	.
.	.	16G/JJ	.	16b\JJ	.	.	.
.	.	16An/LL	.	16cc\LL	.	4.ff\	.
.	.	16A/	.	16cc\	.	.	.
.	.	16G/	.	16b\	.	.	.
.	.	16G/JJ	.	16b\JJ	.	.	.
.	.	8A/L	.	16cc\LL	.	.	.
.	.	.	.	16cc\	.	.	.
.	.	8B/J	.	16dd\	.	8gg\	.
.	.	.	.	16dd\JJ	.	.	.
*clefF4	*clefF4	*	*	*	*	*	*
=100	=100	=100	=100	=100	=100	=100	=100
[1c	.	16C/LL	.	8een/L	.	4een\	.
.	.	16C/	.	.	.	.	.
.	.	16En/	.	16c/L	.	.	.
.	.	16E/JJ	.	16c/JJ	.	.	.
.	.	16C/LL	.	16en/LL	.	8r	.
.	.	16C/	.	16e/	.	.	.
.	.	16E/	.	16c/	.	8c/	.
.	.	16E/JJ	.	16c/JJ	.	.	.
.	.	16D/LL	.	16f/LL	.	4.Bn/	.
.	.	16D/	.	16f/	.	.	.
.	.	16F/	.	16c/	.	.	.
.	.	16F/JJ	.	16c/JJ	.	.	.
.	.	16D/LL	.	16f/LL	.	.	.
.	.	16D/	.	16f/	.	.	.
.	.	16F/	.	16c/	.	8An/	.
.	.	16F/JJ	.	16c/JJ	.	.	.
=101	=101	=101	=101	=101	=101	=101	=101
4.c\]	.	16En/LL	.	16g/LL	.	4.G/	.
.	.	16E/	.	16g/	.	.	.
.	.	16G/	.	16c/	.	.	.
.	.	16G/JJ	.	16c/JJ	.	.	.
.	.	16C\LL	.	16g/LL	.	.	.
.	.	16C\	.	16g/	.	.	.
(16C/LL	.	16c\	.	16G/	.	8en/	.
16BBn/JJ)	.	16c\JJ	.	16G/JJ	.	.	.
(12AAn/L	.	16F/LL	.	16an/LL	.	4.f/	.
.	.	16F/	.	16a/	.	.	.
12GG/	.	.	.	.	.	.	.
.	.	16d/	.	16c/	.	.	.
12FF/J	.	.	.	.	.	.	.
.	.	16d/JJ	.	16c/JJ	.	.	.
12EEn/L	.	16F/LL	.	16a/LL	.	.	.
.	.	16F/	.	16a/	.	.	.
12DD/	.	.	.	.	.	.	.
.	.	16d/	.	16c/	.	8d/	.
12CC/J)	.	.	.	.	.	.	.
.	.	16d/JJ	.	16c/JJ	.	.	.
=102	=102	=102	=102	=102	=102	=102	=102
4.BBn/	.	16d\LL	.	16f/LL	.	[1g	.
.	.	16d\	.	16f/	.	.	.
.	.	16Bn\	.	16d/	.	.	.
.	.	16B\JJ	.	16d/JJ	.	.	.
.	.	16d\LL	.	16f/LL	.	.	.
.	.	16d\	.	16f/	.	.	.
8En\	.	16B\	.	16d/	.	.	.
.	.	16B\JJ	.	16d/JJ	.	.	.
4.F\	.	16B/LL	.	16d/LL	.	.	.
.	.	16B/	.	16d/	.	.	.
.	.	16G/	.	16Bn/	.	.	.
.	.	16G/JJ	.	16B/JJ	.	.	.
.	.	16B/LL	.	16d/LL	.	.	.
.	.	16B/	.	16d/	.	.	.
8D\	.	16G/	.	16B/	.	.	.
.	.	16G/JJ	.	16B/JJ	.	.	.
=103	=103	=103	=103	=103	=103	=103	=103
4.BBn/	.	16d\LL	.	16f/LL	.	4.g/]	.
.	.	16d\	.	16f/	.	.	.
.	.	16Bn\	.	16d/	.	.	.
.	.	16B\JJ	.	16d/JJ	.	.	.
.	.	16d\LL	.	16f/LL	.	.	.
.	.	16d\	.	16f/	.	.	.
8d\	.	16B\	.	16d/	.	8g/	.
.	.	16B\JJ	.	16d/JJ	.	.	.
4.F\	.	16B/LL	.	16d/LL	.	4.an/	.
.	.	16B/	.	16d/	.	.	.
.	.	16G/	.	16Bn/	.	.	.
.	.	16G/JJ	.	16B/JJ	.	.	.
.	.	16B/LL	.	16d/LL	.	.	.
.	.	16B/	.	16d/	.	.	.
8G\	.	16G/	.	16B/	.	8bn/	.
.	.	16G/JJ	.	16B/JJ	.	.	.
=104	=104	=104	=104	=104	=104	=104	=104
4En\	.	16c\LL	.	16en/LL	.	4cc\	.
.	.	16c\	.	16e/	.	.	.
.	.	16G\	.	16c/	.	.	.
.	.	16G\JJ	.	16c/JJ	.	.	.
8r	.	16d/LL	.	16f/LL	.	8r	.
.	.	16d/	.	16f/	.	.	.
8GG/	.	16G/	.	16d/	.	8ddd\	.
.	.	16G/JJ	.	16d/JJ	.	.	.
4.AAn/	.	16d/LL	.	16f/LL	.	4.ff\	.
.	.	16d/	.	16f/	.	.	.
.	.	16G/	.	16d/	.	.	.
.	.	16G/JJ	.	16d/JJ	.	.	.
.	.	16d/LL	.	16f/LL	.	.	.
.	.	16d/	.	16f/	.	.	.
8BBn/	.	16G/	.	16d/	.	8gg\	.
.	.	16G/JJ	.	16d/JJ	.	.	.
=105	=105	=105	=105	=105	=105	=105	=105
4C/	.	16c\LL	.	16en/LL	.	4een\	.
.	.	16c\	.	16e/	.	.	.
.	.	16G\	.	16c/	.	.	.
.	.	16G\JJ	.	16c/JJ	.	.	.
8r	.	16Bn/LL	.	16d/LL	.	8r	.
.	.	16B/	.	16d/	.	.	.
8d\	.	16G/	.	16Bn/	.	8g/	.
.	.	16G/JJ	.	16B/JJ	.	.	.
4.F\	.	16B/LL	.	16d/LL	.	4.an/	.
.	.	16B/	.	16d/	.	.	.
.	.	16G/	.	16B/	.	.	.
.	.	16G/JJ	.	16B/JJ	.	.	.
.	.	16B/LL	.	16d/LL	.	.	.
.	.	16B/	.	16d/	.	.	.
8G\	.	16G/	.	16B/	.	8bn/	.
.	.	16G/JJ	.	16B/JJ	.	.	.
=106	=106	=106	=106	=106	=106	=106	=106
4En\	.	16c\LL	.	16en/LL	.	4cc\	.
.	.	16c\	.	16e/	.	.	.
.	.	16G\	.	16c/	.	.	.
.	.	16G\JJ	.	16c/JJ	.	.	.
8r	.	16d/LL	.	16f/LL	.	8r	.
.	.	16d/	.	16f/	.	.	.
8GG/	.	16G/	.	16d/	.	8ddd\	.
.	.	16G/JJ	.	16d/JJ	.	.	.
4.AA-/	.	16d/LL	.	16f/LL	.	4.ff\	.
.	.	16d/	.	16f/	.	.	.
.	.	16G/	.	16d/	.	.	.
.	.	16G/JJ	.	16d/JJ	.	.	.
.	.	16d/LL	.	16f/LL	.	.	.
.	.	16d/	.	16f/	.	.	.
8BBn/	.	16G/	.	16d/	.	8gg\	.
.	.	16G/JJ	.	16d/JJ	.	.	.
=107	=107	=107	=107	=107	=107	=107	=107
4.C/	.	16c\LL	.	16en/LL	.	4.een\	.
.	.	16c\	.	16e/	.	.	.
.	.	16C\	.	16c/	.	.	.
.	.	16C\JJ	.	16c/JJ	.	.	.
.	.	16En/LL	.	16e/LL	.	.	.
.	.	16E/	.	16e/	.	.	.
8BB-/	.	16C/	.	16c/	.	8cc\	.
.	.	16C/JJ	.	16c/JJ	.	.	.
4.AAn/	.	16F/LL	.	16f/LL	.	4.ff\	.
.	.	16F/	.	16f/	.	.	.
.	.	16C/	.	16c/	.	.	.
.	.	16C/JJ	.	16c/JJ	.	.	.
.	.	16F/LL	.	16f/LL	.	.	.
.	.	16F/	.	16f/	.	.	.
8FF/	.	16C/	.	16c/	.	8aan\	.
.	.	16C/JJ	.	16c/JJ	.	.	.
=108	=108	=108	=108	=108	=108	=108	=108
4.EEn/	.	16G/LL	.	16g/LL	.	4.ccc\	.
.	.	16G/	.	16g/	.	.	.
.	.	16C/	.	16c/	.	.	.
.	.	16C/JJ	.	16c/JJ	.	.	.
.	.	16G/LL	.	16g/LL	.	.	.
.	.	16G/	.	16g/	.	.	.
8CC/	.	16C/	.	16G/	.	8een\	.
.	.	16C/JJ	.	16G/JJ	.	.	.
4.GG/	.	16D/LL	.	16Bn/LL	.	4.gg\	.
.	.	16D/	.	16B/	.	.	.
.	.	16F/	.	16d/	.	.	.
.	.	16F/JJ	.	16d/JJ	.	.	.
.	.	16D/LL	.	16B/LL	.	.	.
.	.	16D/	.	16B/	.	.	.
8GG/	.	16F/	.	16d/	.	8bn\	.
.	.	16F/JJ	.	16d/JJ	.	.	.
=109	=109	=109	=109	=109	=109	=109	=109
4CC/	.	16En/LL	.	4c/	.	4.cc\	.
.	.	16E/	.	.	.	.	.
.	.	16C/	.	.	.	.	.
.	.	16C/JJ	.	.	.	.	.
4r	.	16E/LL	.	4r	.	.	.
.	.	16E/	.	.	.	.	.
.	.	16C/	.	.	.	8c/	.
.	.	16C/JJ	.	.	.	.	.
4.C/	.	2r	.	16c/LL	.	2r	.
.	.	.	.	16c/	.	.	.
.	.	.	.	16G/	.	.	.
.	.	.	.	16G/JJ	.	.	.
.	.	.	.	16c/LL	.	.	.
.	.	.	.	16c/	.	.	.
8CC/	.	.	.	16G/	.	.	.
.	.	.	.	16G/JJ	.	.	.
=110	=110	=110	=110	=110	=110	=110	=110
2r	.	16En/LL	.	2r	.	4.een\	.
.	.	16E/	.	.	.	.	.
.	.	16C/	.	.	.	.	.
.	.	16C/JJ	.	.	.	.	.
.	.	16E/LL	.	.	.	.	.
.	.	16E/	.	.	.	.	.
.	.	16C/	.	.	.	8en/	.
.	.	16C/JJ	.	.	.	.	.
4.En\	.	2r	.	16en/LL	.	2r	.
.	.	.	.	16e/	.	.	.
.	.	.	.	16c/	.	.	.
.	.	.	.	16c/JJ	.	.	.
.	.	.	.	16e/LL	.	.	.
.	.	.	.	16e/	.	.	.
8EEn/	.	.	.	16c/	.	.	.
.	.	.	.	16c/JJ	.	.	.
=111	=111	=111	=111	=111	=111	=111	=111
2r	.	16G/LL	.	2r	.	4.gg\	.
.	.	16G/	.	.	.	.	.
.	.	16En/	.	.	.	.	.
.	.	16E/JJ	.	.	.	.	.
.	.	16G/LL	.	.	.	.	.
.	.	16G/	.	.	.	.	.
.	.	16E/	.	.	.	8g/	.
.	.	16E/JJ	.	.	.	.	.
4.G\	.	2r	.	16g/LL	.	2r	.
.	.	.	.	16g/	.	.	.
.	.	.	.	16en/	.	.	.
.	.	.	.	16e/JJ	.	.	.
.	.	.	.	16g/LL	.	.	.
.	.	.	.	16g/	.	.	.
8GG/	.	.	.	16e/	.	.	.
.	.	.	.	16e/JJ	.	.	.
=112	=112	=112	=112	=112	=112	=112	=112
2r	.	16B-/LL	.	2r	.	4.ccc\	.
.	.	16B-/	.	.	.	.	.
.	.	16G/	.	.	.	.	.
.	.	16G/JJ	.	.	.	.	.
.	.	16B-/LL	.	.	.	.	.
.	.	16B-/	.	.	.	.	.
.	.	16G/	.	.	.	8cc\	.
.	.	16G/JJ	.	.	.	.	.
4.c\	.	2r	.	16b-\LL	.	2r	.
.	.	.	.	16b-\	.	.	.
.	.	.	.	16g\	.	.	.
.	.	.	.	16g\JJ	.	.	.
.	.	.	.	16b-\LL	.	.	.
.	.	.	.	16b-\	.	.	.
8C/	.	.	.	16g\	.	.	.
.	.	.	.	16g\JJ	.	.	.
=113	=113	=113	=113	=113	=113	=113	=113
2r	.	16A-/LL	.	2r	.	4.cc\	.
.	.	16A-/	.	.	.	.	.
.	.	16F/	.	.	.	.	.
.	.	16F/JJ	.	.	.	.	.
.	.	16A-/LL	.	.	.	.	.
.	.	16A-/	.	.	.	.	.
.	.	16F/	.	.	.	8c/	.
.	.	16F/JJ	.	.	.	.	.
4.C/	.	2r	.	16a-/LL	.	2r	.
.	.	.	.	16a-/	.	.	.
.	.	.	.	16f/	.	.	.
.	.	.	.	16f/JJ	.	.	.
.	.	.	.	16a-/LL	.	.	.
.	.	.	.	16a-/	.	.	.
8CC/	.	.	.	16f/	.	.	.
.	.	.	.	16f/JJ	.	.	.
=114	=114	=114	=114	=114	=114	=114	=114
2r	.	16A-/LL	.	2r	.	4.cc-\	.
.	.	16A-/	.	.	.	.	.
.	.	16F/	.	.	.	.	.
.	.	16F/JJ	.	.	.	.	.
.	.	16A-/LL	.	.	.	.	.
.	.	16A-/	.	.	.	.	.
.	.	16F/	.	.	.	8c-/	.
.	.	16F/JJ	.	.	.	.	.
4.D/	.	2r	.	16a-/LL	.	2r	.
.	.	.	.	16a-/	.	.	.
.	.	.	.	16f/	.	.	.
.	.	.	.	16f/JJ	.	.	.
.	.	.	.	16a-/LL	.	.	.
.	.	.	.	16a-/	.	.	.
8DD/	.	.	.	16f/	.	.	.
.	.	.	.	16f/JJ	.	.	.
=115	=115	=115	=115	=115	=115	=115	=115
2r	.	16A-/LL	.	2r	.	4.b-/	p
.	.	16A-/	p	.	.	.	.
.	.	16F/	.	.	.	.	.
.	.	16F/JJ	.	.	.	.	.
.	.	16A-/LL	.	.	.	.	.
.	.	16A-/	.	.	.	.	.
.	.	16F/	.	.	.	8B-/	.
.	.	16F/JJ	.	.	.	.	.
4.D/	p	2r	.	16a-/LL	.	2r	.
.	.	.	.	16a-/	.	.	.
.	.	.	.	16f/	.	.	.
.	.	.	.	16f/JJ	p	.	.
.	.	.	.	16a-/LL	.	.	.
.	.	.	.	16a-/	.	.	.
8DD/	.	.	.	16f/	.	.	.
.	.	.	.	16f/JJ	.	.	.
=116	=116	=116	=116	=116	=116	=116	=116
2r	.	16G-/LL	.	2r	.	4.b-/	.
.	.	16G-/	.	.	.	.	.
.	.	16E-/	.	.	.	.	.
.	.	16E-/JJ	.	.	.	.	.
.	.	16G-/LL	.	.	.	.	.
.	.	16G-/	.	.	.	.	.
.	.	16E-/	.	.	.	8B-/	.
.	.	16E-/JJ	.	.	.	.	.
4.E-\	.	2r	.	16g-/LL	.	2r	.
.	.	.	.	16g-/	.	.	.
.	.	.	.	16e-/	.	.	.
.	.	.	.	16e-/JJ	.	.	.
.	.	.	.	16g-/LL	.	.	.
.	.	.	.	16g-/	.	.	.
8EE-/	.	.	.	16e-/	.	.	.
.	.	.	.	16e-/JJ	.	.	.
=117	=117	=117	=117	=117	=117	=117	=117
2r	.	16A-/LL	.	2r	.	4.b-/	.
.	.	16A-/	.	.	.	.	.
.	.	16F/	.	.	.	.	.
.	.	16F/JJ	.	.	.	.	.
.	.	16A-/LL	.	.	.	.	.
.	.	16A-/	.	.	.	.	.
.	.	16F/	.	.	.	8B-/	.
.	.	16F/JJ	.	.	.	.	.
4.F\	.	2r	.	16d/LL	.	2r	.
.	.	.	.	16d/	.	.	.
.	.	.	.	16B-/	.	.	.
.	.	.	.	16B-/JJ	.	.	.
.	.	.	.	16d/LL	.	.	.
.	.	.	.	16d/	.	.	.
8FF/	.	.	.	16B-/	.	.	.
.	.	.	.	16B-/JJ	.	.	.
=118	=118	=118	=118	=118	=118	=118	=118
2r	.	16G-/LL	.	2r	.	4.b-/	.
.	.	16G-/	.	.	.	.	.
.	.	16E-/	.	.	.	.	.
.	.	16E-/JJ	.	.	.	.	.
.	.	16G-/LL	.	.	.	.	.
.	.	16G-/	.	.	.	.	.
.	.	16E-/	.	.	.	8B-/	.
.	.	16E-/JJ	.	.	.	.	.
4.G-\	.	2r	.	16e-/LL	.	2r	.
.	.	.	.	16e-/	.	.	.
.	.	.	.	16B-/	.	.	.
.	.	.	.	16B-/JJ	.	.	.
.	.	.	.	16e-/LL	.	.	.
.	.	.	.	16e-/	.	.	.
8GG-/	.	.	.	16B-/	.	.	.
.	.	.	.	16B-/JJ	.	.	.
=119	=119	=119	=119	=119	=119	=119	=119
2r	.	(16An/LL	.	2r	.	4.b-/	p
.	.	16B-/	.	.	.	.	.
.	.	16A/	p	.	.	.	.
.	.	16B-/JJ	.	.	.	.	.
.	.	16A/LL	.	.	.	.	.
.	.	16B-/	.	.	.	.	.
.	.	16A/	.	.	.	8f/	.
.	.	16B-/JJ)	.	.	.	.	.
4.B-\	p	2r	.	(16c-/LL	.	2r	.
.	.	.	.	16B-/	.	.	.
.	.	.	.	16c-/	p	.	.
.	.	.	.	16B-/JJ	.	.	.
.	.	.	.	16c-/LL	.	.	.
.	.	.	.	16B-/	.	.	.
8F\	.	.	.	16c-/	.	.	.
.	.	.	.	16B-/JJ)	.	.	.
=120	=120	=120	=120	=120	=120	=120	=120
2r	.	(16An/LL	.	2r	.	4.g-/	.
.	.	16B-/	.	.	.	.	.
.	.	16A/	.	.	.	.	.
.	.	16B-/JJ	.	.	.	.	.
.	.	16A/LL	.	.	.	.	.
.	.	16B-/	.	.	.	.	.
.	.	16A/	.	.	.	8e-/	.
.	.	16B-/JJ)	.	.	.	.	.
4.G-\	.	2r	.	(16c-/LL	.	2r	.
.	.	.	.	16B-/	.	.	.
.	.	.	.	16c-/	.	.	.
.	.	.	.	16B-/JJ	.	.	.
.	.	.	.	16c-/LL	.	.	.
.	.	.	.	16B-/	.	.	.
8E-\	.	.	.	16c-/	.	.	.
.	.	.	.	16B-/JJ)	.	.	.
=121	=121	=121	=121	=121	=121	=121	=121
2r	.	(16An/LL	.	2r	.	4.d/	.
.	.	16B-/	.	.	.	.	.
.	.	16A/	.	.	.	.	.
.	.	16B-/JJ	.	.	.	.	.
.	.	16A/LL	.	.	.	.	.
.	.	16B-/	.	.	.	.	.
.	.	16A/	.	.	.	8B-/	.
.	.	16B-/JJ)	.	.	.	.	.
4.D/	.	2r	.	(16cn/LL	.	2r	.
.	.	.	.	16B-/	.	.	.
.	.	.	.	16c/	.	.	.
.	.	.	.	16B-/JJ	.	.	.
.	.	.	.	16c/LL	.	.	.
.	.	.	.	16B-/	.	.	.
8BB-/	.	.	.	16c/	.	.	.
.	.	.	.	16B-/JJ)	.	.	.
=122	=122	=122	=122	=122	=122	=122	=122
2r	.	(16F/LL	.	2r	.	4.e-/	.
.	.	16G-/	.	.	.	.	.
.	.	16F/	.	.	.	.	.
.	.	16G-/JJ	.	.	.	.	.
.	.	16F/LL)	.	.	.	.	.
.	.	16G-/	.	.	.	.	.
.	.	16F/	.	.	.	8An/	.
.	.	16G-/JJ	.	.	.	.	.
4.E-\	.	2r	.	(16Bn/LL	.	2r	.
.	.	.	.	16c/	.	.	.
.	.	.	.	16B/	.	.	.
.	.	.	.	16c/JJ	.	.	.
.	.	.	.	16B/LL	.	.	.
.	.	.	.	16c/	.	.	.
8AAn/	.	.	.	16B/	.	.	.
.	.	.	.	16c/JJ)	.	.	.
=123	=123	=123	=123	=123	=123	=123	=123
2r	.	(16En/LL	pp	2r	.	4.d/	pp
.	.	16F/	.	.	.	.	.
.	.	16E/	.	.	.	.	.
.	.	16F/JJ	.	.	.	.	.
.	.	16E/LL	.	.	.	.	.
.	.	16F/	.	.	.	.	.
.	.	16E/	.	.	.	8B-/	.
.	.	16F/JJ)	.	.	.	.	.
4.D/	pp	2r	.	(16c/LL	pp	2r	.
.	.	.	.	16B-/	.	.	.
.	.	.	.	16c/	.	.	.
.	.	.	.	16B-/JJ	.	.	.
.	.	.	.	16c/LL	.	.	.
.	.	.	.	16B-/	.	.	.
8BB-/	.	.	.	16c/	.	.	.
.	.	.	.	16B-/JJ)	.	.	.
=124	=124	=124	=124	=124	=124	=124	=124
2r	.	(16En/LL	.	2r	.	4.d/	.
.	.	16F/	.	.	.	.	.
.	.	16E/	.	.	.	.	.
.	.	16F/JJ	.	.	.	.	.
.	.	16E/LL	.	.	.	.	.
.	.	16F/	.	.	.	.	.
.	.	16E/	.	.	.	8B-/	.
.	.	16F/JJ)	.	.	.	.	.
4.D/	.	2r	.	(16c/LL	.	2r	.
.	.	.	.	16B-/	.	.	.
.	.	.	.	16c/	.	.	.
.	.	.	.	16B-/JJ	.	.	.
.	.	.	.	16c/LL	.	.	.
.	.	.	.	16B-/	.	.	.
8BB-/	.	.	.	16c/	.	.	.
.	.	.	.	16B-/JJ)	.	.	.
=125	=125	=125	=125	=125	=125	=125	=125
2r	.	1r	.	1r	.	[1B- [1d	.
4BB-/	.	.	.	.	.	.	.
4D/	.	.	.	.	.	.	.
=126	=126	=126	=126	=126	=126	=126	=126
4F\	.	2r	.	1r	.	1B-_ 1d_	.
4B-\	.	.	.	.	.	.	.
2r	.	4D/	.	.	.	.	.
.	.	4F/	.	.	.	.	.
=127	=127	=127	=127	=127	=127	=127	=127
*	*	*	*	*	*	*^	*
1r	.	4B-/	.	2r	.	1d_	1B-_	.
.	.	4d\	.	.	.	.	.	.
.	.	2r	.	4f/	.	.	.	.
.	.	.	.	4b-/	.	.	.	.
*	*	*	*	*	*	*v	*v	*
=128	=128	=128	=128	=128	=128	=128	=128
2r	.	1r	.	4dd\	.	1B-] 1d]	.
.	.	.	.	4ff\	.	.	.
(6BB-/	.	.	.	2r	.	.	.
6D\	.	.	.	.	.	.	.
6F\)	.	.	.	.	.	.	.
=129	=129	=129	=129	=129	=129	=129	=129
(6D\	.	2r	.	1r	.	[1A- [1d	.
6F\	.	.	.	.	.	.	.
6B-\)	.	.	.	.	.	.	.
2r	.	(6D/	.	.	.	.	.
.	.	6F/	.	.	.	.	.
.	.	6B-/)	.	.	.	.	.
=130	=130	=130	=130	=130	=130	=130	=130
1r	.	(6F/	.	2r	.	1A-_ 1d_	.
.	.	6B-/	.	.	.	.	.
.	.	6d\)	.	.	.	.	.
.	.	2r	.	(6B-/	.	.	.
.	.	.	.	6d/	.	.	.
.	.	.	.	6f/)	.	.	.
=131	=131	=131	=131	=131	=131	=131	=131
2r	.	1r	.	(6b-\	.	1A-] 1d]	.
.	.	.	.	6dd\	.	.	.
.	.	.	.	6ff\)	.	.	.
8BB-\L	.	.	.	2r	.	.	.
8D\	.	.	.	.	.	.	.
8F\	.	.	.	.	.	.	.
8B-\J	.	.	.	.	.	.	.
=132	=132	=132	=132	=132	=132	=132	=132
*	*	*	*	*	*	*^	*
8D\L	.	2r	.	1r	.	[1f	[1A-	.
8F\	.	.	.	.	.	.	.	.
8B-\	.	.	.	.	.	.	.	.
8d\J	.	.	.	.	.	.	.	.
2r	.	8D/L	.	.	.	.	.	.
.	.	8F/	.	.	.	.	.	.
.	.	8B-/	.	.	.	.	.	.
.	.	8d/J	.	.	.	.	.	.
*	*	*	*	*	*	*v	*v	*
=133	=133	=133	=133	=133	=133	=133	=133
1r	.	8F/L	.	2r	.	1A-_ 1f_	.
.	.	8B-/	.	.	.	.	.
.	.	8d/	.	.	.	.	.
.	.	8f/J	.	.	.	.	.
.	.	2r	.	8d\L	.	.	.
.	.	.	.	8f\	.	.	.
.	.	.	.	8b-\	.	.	.
.	.	.	.	8dd\J	.	.	.
=134	=134	=134	=134	=134	=134	=134	=134
2r	.	1r	.	8f\L	.	1A-] 1f]	.
.	.	.	.	8b-\	.	.	.
.	.	.	.	8dd\	.	.	.
.	.	.	.	8ff\J	.	.	.
12BB-\L	.	.	.	2r	.	.	.
12D\	.	.	.	.	.	.	.
12F\J	.	.	.	.	.	.	.
12B-\L	.	.	.	.	.	.	.
12d\	.	.	.	.	.	.	.
12f\J	.	.	.	.	.	.	.
=135	=135	=135	=135	=135	=135	=135	=135
1r	.	12D/L	.	2r	.	[1f [1a-	.
.	.	12F/	.	.	.	.	.
.	.	12B-/J	.	.	.	.	.
.	.	12d\L	.	.	.	.	.
.	.	12f\	.	.	.	.	.
.	.	12b-\J	.	.	.	.	.
.	.	2r	.	12B-/L	.	.	.
.	.	.	.	12d/	.	.	.
.	.	.	.	12f/J	.	.	.
.	.	.	.	12b-\L	.	.	.
.	.	.	.	12dd\	.	.	.
.	.	.	.	12ff\J	.	.	.
=136	=136	=136	=136	=136	=136	=136	=136
12BB-\L	.	2r	.	1r	.	1f_ 1a-_	.
12D\	.	.	.	.	.	.	.
12F\J	.	.	.	.	.	.	.
12A-\L	.	.	.	.	.	.	.
12B-\	.	.	.	.	.	.	.
12d\J	.	.	.	.	.	.	.
2r	.	12D/L	.	.	.	.	.
.	.	12F/	.	.	.	.	.
.	.	12A-/J	.	.	.	.	.
.	.	12B-\L	.	.	.	.	.
.	.	12d\	.	.	.	.	.
.	.	12f\J	.	.	.	.	.
=137	=137	=137	=137	=137	=137	=137	=137
1r	.	2r	.	12B-/L	.	2f/] 2a-/]	.
.	.	.	.	12d/	.	.	.
.	.	.	.	12f/J	.	.	.
.	.	.	.	12a-/L	.	.	.
.	.	.	.	12b-/	.	.	.
.	.	.	.	12dd/J	.	.	.
.	.	12a-\L	.	12dd\ 12ff\L	.	12d/L	.
.	.	12f\	.	12dd\ 12ff\	.	12f/	.
.	.	12d\J	.	12dd\ 12ff\J	.	12a-/J	.
.	.	12B-/L	.	12dd\ 12ff\L	.	12b-\L	.
.	.	12A-/	.	12dd\ 12ff\	.	12dd\	.
.	.	12F/J	.	12dd\ 12ff\J	.	12ff\J	.
=138	=138	=138	=138	=138	=138	=138	=138
12f\L	.	12D/L	.	12dd\ 12ff\L	.	12a-\L	.
12d\	.	12d\ 12f\	.	12a-\	.	12b-\	.
(12B-\J	.	12d\ 12f\J	.	12a-\J	.	12dd\J	.
12A-\L	.	12d\ 12f\L	.	12a-\L	.	12ff\L	.
12F\)	.	12d\ 12f\	.	12a-\	.	12aa-\	.
12D\J	.	12d\ 12f\J	.	12a-\J	.	12bb-\J	.
12BB-/L	.	12d/ 12f/L	.	12aa-\L	.	12ddd\L	.
12BB-/	.	12F/ 12A-/	.	12ff\	.	12fff\	.
12BB-/J	.	12F/ 12A-/J	.	12dd\J	.	12aaa-\J	.
12BB-/L	.	12F/ 12A-/L	.	12b-/L	.	8aaa-\L	.
12BB-/	.	12F/ 12A-/	.	12a-/	.	.	.
.	.	.	.	.	.	8d/J	.
12BB-/J	.	12F/ 12A-/J	.	12f/J	.	.	.
=139	=139	=139	=139	=139	=139	=139	=139
4EE-/	f	4E-/ 4G/	f	4G/ 4e-/	f	4G/ 4e-/ 4ee-/	f
4r	.	4r	.	4r	.	4r	.
4E-'\	.	4G'/	.	4B-'/	.	4e-'/	.
4E-'\	.	4e-'\	.	4B-'/	.	4g'/	.
=140	=140	=140	=140	=140	=140	=140	=140
4D'\	.	4B-'/	.	4f'/	.	4b-'/	.
4r	.	4r	.	4r	.	4r	.
2r	.	2r	.	8r	.	2r	.
.	.	.	.	(8B-/L	p	.	.
.	.	.	.	8c/	.	.	.
.	.	.	.	8d/J	.	.	.
=141	=141	=141	=141	=141	=141	=141	=141
1r	.	1r	.	8e-/L	.	2r	.
.	.	.	.	8d/	.	.	.
.	.	.	.	8e-/	.	.	.
.	.	.	.	8g/J	.	.	.
.	.	.	.	8f/L	.	[2bb-\	p
.	.	.	.	8en/	.	.	.
.	.	.	.	8f/	.	.	.
.	.	.	.	8a-/J)	.	.	.
=142	=142	=142	=142	=142	=142	=142	=142
(2E-\	.	[1E-	p	(8g/L	.	(4bb-\]	.
.	.	.	.	8f/	.	.	.
.	.	.	.	8g/	.	8gg\L	.
.	.	.	.	8b-/J	.	8aa-\J	.
2G\	.	.	.	8e-/L	.	4bb-\	.
.	.	.	.	8d/	.	.	.
.	.	.	.	8e-/	.	4dd-\)	.
.	.	.	.	8b-/J)	.	.	.
=143	=143	=143	=143	=143	=143	=143	=143
(2A-\)	.	1E-_	.	(8e-/L	.	2cc\	.
.	.	.	.	8d/	.	.	.
.	.	.	.	8e-/)	.	.	.
.	.	.	.	8cc/J	.	.	.
2c\	.	.	.	8e-/L	.	4.aa-\	.
.	.	.	.	8d/	.	.	.
.	.	.	.	8e-/	.	.	.
.	.	.	.	&(8a-/J&)	.	8gg\	.
=144	=144	=144	=144	=144	=144	=144	=144
2d\	.	1E-_	.	(8f/L	.	4.ff\	.
.	.	.	.	8en/	.	.	.
.	.	.	.	8f/	.	.	.
.	.	.	.	8a-/J	.	8ccc\	.
2B-\)	.	.	.	8d/L	.	4.bb-\	.
.	.	.	.	8c#/	.	.	.
.	.	.	.	8d/	.	.	.
.	.	.	.	8f/J)	.	8aa-\	.
=145	=145	=145	=145	=145	=145	=145	=145
4e-\	.	2E-/]	.	(8B-/L	.	(4ff#\	.
.	.	.	.	8An/	.	.	.
4r	.	.	.	8B-/	.	4gg\)	.
.	.	.	.	8e-/J)	.	.	.
*clefC4	*clefG2	*	*	*	*	*	*
[2b-\	.	(8G/L	.	2r	.	2r	.
.	.	8F#/	.	.	.	.	.
.	.	8G/	.	.	.	.	.
.	.	8B-/J)	.	.	.	.	.
=146	=146	=146	=146	=146	=146	=146	=146
(4b-\]	.	(2E-/	.	2r	.	(8gg\L	.
.	.	.	.	.	.	8ff#\	.
8g\L	.	.	.	.	.	8gg\	.
8a-\J	.	.	.	.	.	8bb-\J	.
4b-\	.	2G/	.	[2e-/	.	8ee-\L	.
.	.	.	.	.	.	8gg\	.
4d-\)	.	.	.	.	.	8aa-\	.
.	.	.	.	.	.	8bb-\J)	.
=147	=147	=147	=147	=147	=147	=147	=147
2c\	.	2A-/	.	(8e-/L]	.	[1ccc	.
.	.	.	.	8d/	.	.	.
.	.	.	.	8e-/	.	.	.
.	.	.	.	8ee-/J)	.	.	.
4.a-\	.	2Fn/)	.	[2ee-\	.	.	.
8g\	.	.	.	.	.	.	.
=148	=148	=148	=148	=148	=148	=148	=148
4.f\	.	[1B-	.	2ee-\]	.	2ccc\]	.
*clefF4	*clefF4	*	*	*	*	*	*
8C/	.	.	.	.	.	.	.
(8BB-/L	.	.	.	2ff\	.	2ddd\	.
8AA-/)	.	.	.	.	.	.	.
8GG'/	.	.	.	.	.	.	.
8FF'/J	.	.	.	.	.	.	.
=149	=149	=149	=149	=149	=149	=149	=149
4.EE-/	.	2B-/]	.	2gg\	.	2eee-\	.
8E-\	.	.	.	.	.	.	.
(8D/L	.	(2d\	.	2b-\	.	(2fffn\	.
8C/)	.	.	.	.	.	.	.
8BB-'/	.	.	.	.	.	.	.
8AA-'/J	.	.	.	.	.	.	.
=150	=150	=150	=150	=150	=150	=150	=150
4.GG/	.	2e-\	.	1b-	.	2ggg\	.
8G\	.	.	.	.	.	.	.
(8F\L	.	2f\)	.	.	.	2aaa-\)	.
8E-\)	.	.	.	.	.	.	.
8D'\	.	.	.	.	.	.	.
8C'\J	.	.	.	.	.	.	.
=151	=151	=151	=151	=151	=151	=151	=151
4BB-/	p	4g\	p	4b-\	p	4.bbb-\	p
4r	.	(4E-/	.	(4G/	.	.	.
.	.	.	.	.	.	8ee-\	.
2r	.	2F/)	.	2A-/)	.	(8dd\L	.
.	.	.	.	.	.	8cc\)	.
.	.	.	.	.	.	8b-'\	.
.	.	.	.	.	.	8a-'\J	.
=152	=152	=152	=152	=152	=152	=152	=152
(2EE-/	.	(2G/	.	(2B-/	.	4.g/	.
.	.	.	.	.	.	8gg\	.
2FF/)	.	2A-/)	.	2d/)	.	(8ff\L	.
.	.	.	.	.	.	8ee-\)	.
.	.	.	.	.	.	8dd'\	.
.	.	.	.	.	.	8cc'\J	.
=153	=153	=153	=153	=153	=153	=153	=153
4GG/	p	4B-\ 4en\	p	8d-/L	p	8b-\L	p
.	.	.	.	8gg\	.	8dd-\ 8bb-\	.
4r	.	4r	.	8gg\	.	8dd-\ 8bb-\	.
.	.	.	.	8gg\J	.	8dd-\ 8bb-\J	.
2r	.	4G/	.	8een\ 8gg\L	.	8dd-\ 8bb-\L	.
.	.	.	.	8ee\ 8gg\	.	8dd-\ 8bb-\	.
.	.	4B-/	.	8ee\ 8gg\	.	8dd-\ 8bb-\	.
.	.	.	.	8ee\ 8gg\J	.	8dd-\ 8bb-\J	.
=154	=154	=154	=154	=154	=154	=154	=154
4C/	.	2r	.	8gg\L	.	8cc\ 8bb-\L	.
.	.	.	.	8gg\	.	8cc\ 8bb-\	.
4En\	.	.	.	8gg\	.	8cc\ 8bb-\	.
.	.	.	.	8gg\J	.	8cc\ 8bb-\J	.
2r	.	4F/	.	8ff\L	.	8cc\ 8aa-\L	.
.	.	.	.	8ff\	.	8cc\ 8aa-\	.
.	.	4A-/	.	8ff\	.	8cc\ 8aa-\	.
.	.	.	.	8ff\J	.	8cc\ 8aa-\J	.
=155	=155	=155	=155	=155	=155	=155	=155
4BB-/	.	2r	.	8ff\L	.	8b-\ 8aa-\L	.
.	.	.	.	8ff\	.	8b-\ 8aa-\	.
4D/	.	.	.	8ff\	.	8b-\ 8aa-\	.
.	.	.	.	8ff\J	.	8b-\ 8aa-\J	.
2r	.	4E-/	.	8ee-\L	.	8b-\ 8gg\L	.
.	.	.	.	8ee-\	.	8b-\ 8gg\	.
.	.	4A-/	.	8ee-\	.	8cc\ 8ff\	.
.	.	.	.	8ee-\J	.	8cc\ 8ff\J	.
=156	=156	=156	=156	=156	=156	=156	=156
4r	.	4B-/	.	8ee-\L	.	8b-\ 8gg\L	.
.	.	.	.	8ee-\ 8gg\	.	8b-\ 8bb-\	.
4BB-/	.	4r	.	8ee-\ 8gg\	.	8b-\ 8bb-\	.
.	.	.	.	8ee-\ 8gg\J	.	8b-\ 8bb-\J	.
4r	.	4B-/	.	8dd\ 8ff\L	.	8b-\ 8bb-\L	.
.	.	.	.	8dd\ 8ff\	.	8b-\ 8bb-\	.
4BB-/	.	4r	.	8dd\ 8ff\	.	8b-\ 8bb-\	.
.	.	.	.	8dd\ 8ff\J	.	8b-\ 8bb-\J	.
=157	=157	=157	=157	=157	=157	=157	=157
8B-\L	.	8d\ 8f\L	.	1r	.	2r	.
8B-\	.	8d\ 8f\	.	.	.	.	.
8B-\	.	8d\ 8f\	.	.	.	.	.
8B-\J	.	8d\ 8f\J	.	.	.	.	.
8B-\L	.	8d\ 8f\L	.	.	.	4ff\	.
8B-\	.	8d\ 8f\	.	.	.	.	.
8B-\	.	8d\ 8f\	.	.	.	4bb-\	.
8B-\J	.	8d\ 8f\J	.	.	.	.	.
=158	=158	=158	=158	=158	=158	=158	=158
8An\L	.	8c\ 8f#\L	.	4dd\	.	2r	.
8A\	.	8c\ 8f#\	.	.	.	.	.
8A\	.	8c\ 8f#\	.	4ff#\	.	.	.
8A\J	.	8c\ 8f#\J	.	.	.	.	.
8G\L	.	8d\ 8fn\L	.	2r	.	4gg\	.
8G\	.	8d\ 8f\	.	.	.	.	.
8G\	.	8d\ 8f\	.	.	.	4bbn\	.
8G\J	.	8d\ 8f\J	.	.	.	.	.
=159	=159	=159	=159	=159	=159	=159	=159
8c\L	.	8e-\L	.	4cc\	.	2r	.
8e-\	.	8g\	.	.	.	.	.
8e-\	.	8g\	.	4gg\	.	.	.
8e-\J	.	8g\J	.	.	.	.	.
8e-\L	.	8g\L	.	2r	.	4aan\	.
8e-\	.	8g\	.	.	.	.	.
8e-\	.	8g\	.	.	.	4ccc\	.
8e-\J	.	8g\J	.	.	.	.	.
=160	=160	=160	=160	=160	=160	=160	=160
8d\L	.	8g\ 8b-\L	.	4r	.	4ddd\	.
8d\	.	8g\ 8b-\	.	.	.	.	.
8d\	.	8g\ 8b-\	.	4dd\	.	4r	.
8d\J	.	8g\ 8b-\J	.	.	.	.	.
8D\L	.	8f#\ 8an\L	.	4r	.	4ddd\	.
8D\	.	8f#\ 8a\	.	.	.	.	.
8D\	.	8f#\ 8a\	.	4dd\	.	4r	.
8D\J	.	8f#\ 8a\J	.	.	.	.	.
=161	=161	=161	=161	=161	=161	=161	=161
4GG/	.	4g\	.	2r	.	8dd\ 8bb-\L	.
.	.	.	.	.	.	8dd\ 8bb-\	.
4r	.	4r	.	.	.	8dd\ 8bb-\	.
.	.	.	.	.	.	8dd\ 8bb-\J	.
2r	.	4G/	.	8gg\L	.	8dd\ 8bb-\L	.
.	.	.	.	8gg\	.	8dd\ 8bb-\	.
.	.	4B-/	.	8gg\	.	8dd\ 8bb-\	.
.	.	.	.	8gg\J	.	8dd\ 8bb-\J	.
=162	=162	=162	=162	=162	=162	=162	=162
4D\	.	2r	.	8cc\L	.	8dd\ 8aan\L	.
.	.	.	.	8cc\	.	8dd\ 8aa\	.
4F#\	.	.	.	8cc\	.	8dd\ 8aa\	.
.	.	.	.	8cc\J	.	8dd\ 8aa\J	.
2r	.	4G/	.	8bn\L	.	8dd\ 8gg\L	.
.	.	.	.	8ffn\	.	8dd\ 8gg\	.
.	.	4Bn/	.	8ff\	.	8dd\ 8gg\	.
.	.	.	.	8ff\J	.	8dd\ 8gg\J	.
=163	=163	=163	=163	=163	=163	=163	=163
4C/	.	2r	.	8ee-\L	.	8cc\ 8gg\L	.
.	.	.	.	8ee-\	.	8cc\ 8gg\	.
4E-\	.	.	.	8ee-\	.	8cc\ 8gg\	.
.	.	.	.	8ee-\J	.	8cc\ 8gg\J	.
2r	.	4Fn/	.	8dd\L	.	8cc\ 8aa-\L	.
.	.	.	.	8dd\	.	8cc\ 8aa-\	.
.	.	4A-/	.	8dd\	.	8cc\ 8ff\	.
.	.	.	.	8dd\J	.	8cc\ 8ff\J	.
=164	=164	=164	=164	=164	=164	=164	=164
4r	.	4G/	.	8ee-\L	.	8cc\ 8gg\L	.
.	.	.	.	8ee-\	.	8cc\ 8gg\	.
4GG/	.	4r	.	8ee-\	.	8cc\ 8gg\	.
.	.	.	.	8ee-\J	.	8cc\ 8gg\J	.
4r	.	4G/	.	8dd\L	.	8bn\ 8gg\L	.
.	.	.	.	8dd\	.	8b\ 8gg\	.
4GG/	.	4r	.	8dd\	.	8b\ 8gg\	.
.	.	.	.	8dd\J	.	8b\ 8gg\J	.
=165	=165	=165	=165	=165	=165	=165	=165
8c\L	.	8e-\L	.	1r	.	2r	.
8c\	.	8e-\	.	.	.	.	.
8c\	.	8e-\	.	.	.	.	.
8c\J	.	8e-\J	.	.	.	.	.
8c\L	.	8d-\ 8f\L	.	.	.	4dd-\	.
8c\	.	8d-\ 8f\	.	.	.	.	.
8c\	.	8d-\ 8f\	.	.	.	4ff\	.
8c\J	.	8d-\ 8f\J	.	.	.	.	.
=166	=166	=166	=166	=166	=166	=166	=166
8B-\L	.	8d-\ 8g\L	.	4gg\	.	2r	.
8B-\	.	8d-\ 8g\	.	.	.	.	.
8B-\	.	8d-\ 8g\	.	4bb-\	.	.	.
8B-\J	.	8d-\ 8g\J	.	.	.	.	.
8B-\L	.	8c\ 8g\L	.	2r	.	4cc\	.
8B-\	.	8c\ 8g\	.	.	.	.	.
8B-\	.	8c\ 8g\	.	.	.	4een\	.
8B-\J	.	8c\ 8g\J	.	.	.	.	.
=167	=167	=167	=167	=167	=167	=167	=167
8A-\L	.	8c\ 8f\L	.	2r	.	4ff\	.
8A-\	.	8c\ 8f\	.	.	.	.	.
8A-\	.	8c\ 8f\	.	.	.	4aa-\	.
8A-\J	.	8c\ 8f\J	.	.	.	.	.
8A-\L	.	8B-\ 8f\L	.	4b-\	.	4bb-\	.
8A-\	.	8B-\ 8f\	.	.	.	.	.
8A-\	.	8B-\ 8f\	.	4dd\	.	4ddd\	.
8A-\J	.	8B-\ 8f\J	.	.	.	.	.
=168	=168	=168	=168	=168	=168	=168	=168
8G\L	.	8B-\ 8e-\L	.	4ee-\	.	4eee-\	.
8G\	.	8B-\ 8e-\	.	.	.	.	.
8G\	.	8B-\ 8e-\	.	4ee-\	.	4r	.
8G\J	.	8B-\ 8e-\J	.	.	.	.	.
8F\L	.	8An\ 8e-\L	.	4r	.	4fff\	.
8F\	.	8A\ 8e-\	.	.	.	.	.
8F\	.	8c\ 8e-\	.	4ff\	.	4r	.
8F\J	.	8c\ 8e-\J	.	.	.	.	.
=169	=169	=169	=169	=169	=169	=169	=169
4BB-'/	f	4B-'\ 4d'\	f	4r	.	4b-'\ 4bb-'\	f
4r	.	4r	.	4b-'\ 4bb-'\	f	4r	.
2r	.	2r	.	[2cc-\	p	2r	.
*clefC4	*clefG2	*	*	*	*	*	*
=170	=170	=170	=170	=170	=170	=170	=170
(2a-\	p	(2dd\	p	2cc-\_	.	(2ff\	p
2an\)	.	2ee-\)	.	2cc-\]	.	2gg-\)	.
*clefF4	*clefF4	*	*	*	*	*	*
=171	=171	=171	=171	=171	=171	=171	=171
4BB-'/	f	4d'\ 4dd'\	f	4ff'\	f	4b-'\ 4bb-'\	f
4r	.	4B-'\ 4d'\	.	4b-'\ 4bb-'\	p	4r	.
2r	.	[2c-\	p	2r	.	2r	.
=172	=172	=172	=172	=172	=172	=172	=172
(1A-	p	(1c-]	.	(1d	.	(1f	p
=173	=173	=173	=173	=173	=173	=173	=173
1An)	.	1cn)	.	1e-)	.	1g-)	.
=174	=174	=174	=174	=174	=174	=174	=174
[2A-\	>	[2d\	>	[2B-/ [2f/	>	[2cc\	>
8A-\L]	.	8d\L]	.	8B-/] 8f/L]	.	(8cc\L]	.
8A-'\	.	8d'\	.	8f'/	.	8b-\)	.
8A-'\	p	8d'\	p	8B-'/	p	8f'\	p
8G'\J	.	8en'\J	.	8B-'/J	.	8gn'\J	.
=175	=175	=175	=175	=175	=175	=175	=175
8F/L	.	8f/L	.	8A-/L	.	8a-/L	.
8BB-/	.	8F/	.	8A-/	.	8c/	.
8BB-/	.	8F/	.	8A-/	.	8d/	.
8BB-/J	.	8F/J	.	8A-/J	.	8B-/J	.
8EE-/L	.	8E-/L	.	8G/L	.	8e-/L	.
8EE-/	.	8G/	.	8B-/	.	8B-/	.
8BB-/	.	8D/	.	8B-/	.	8f/	.
8BB-/J	.	8A-/J	.	8B-/J	.	8B-/J	.
=176	=176	=176	=176	=176	=176	=176	=176
8E-\	.	8G/	.	8B-/	.	8g/	.
8r	.	(4B-/	.	(4b-/	.	8r	.
4r	.	.	.	.	.	4r	.
.	.	8Bn/	.	8bn/	.	.	.
2r	.	8c/L	.	8cc/L	.	8r	.
.	.	8B-/)	.	8b-/)	.	(4dd\	.
.	.	8F'/	.	8f'/	.	.	.
.	.	8G'/J	.	8g'/J	.	8een\)	.
=177	=177	=177	=177	=177	=177	=177	=177
8r	.	8A-'/L	.	8a-'/L	.	8ff'\L	.
(4CC/	.	8E-'/	.	8e-'/	.	8gg'\	.
.	.	8F'/	.	8f'/	.	8aa-'\	.
8DD/	.	8F'/J	.	8B-'/J	.	8bb-'\J	.
8EE-/)	.	8G/L	.	8e-/L	.	8bb-\L	.
*clefC4	*clefG2	*	*	*	*	*	*
8B-'\L	.	8E-/	.	8g/	.	8bb-\	.
8f'\	.	8D/	.	8a-/	.	8bb-\	.
8B-'\J	.	8D/J	.	8a-/J	.	8bb-\J	.
=178	=178	=178	=178	=178	=178	=178	=178
[2e-\	p	8E-/	p	8g/L	p	8bb-\L	p
.	.	8r	.	8b-/	.	8gg\	.
.	.	4r	.	8b-/	.	8gg\	.
.	.	.	.	8b-/J	.	8gg\J	.
(16e-\LL]	.	2r	.	4b-/	.	4gg\	.
16d\	.	.	.	.	.	.	.
16c\	.	.	.	.	.	.	.
16B-\JJ	.	.	.	.	.	.	.
16c\LL	.	.	.	4r	.	4r	.
16d\	.	.	.	.	.	.	.
16e-\	.	.	.	.	.	.	.
16f\JJ)	.	.	.	.	.	.	.
=179	=179	=179	=179	=179	=179	=179	=179
[2g\	.	[2e-\	.	8r	.	8r	.
.	.	.	.	8ee-\L	.	8gg\L	.
.	.	.	.	8ee-\	.	8gg\	.
.	.	.	.	8ee-\J	.	8gg\J	.
(16g\LL]	.	(16e-\LL]	.	4ee-\	.	4gg\	.
16f\	.	16d\	.	.	.	.	.
16e-\	.	16c\	.	.	.	.	.
16d\JJ	.	16B-\JJ	.	.	.	.	.
16e-\LL	.	16c\LL	.	4r	.	4r	.
16f\	.	16d\	.	.	.	.	.
16g\	.	16e-\	.	.	.	.	.
16a-\JJ)	.	16f\JJ)	.	.	.	.	.
=180	=180	=180	=180	=180	=180	=180	=180
(16b-\LL	.	(16g\LL	.	[2ee-\	.	2r	.
16cc\	.	16a-\	.	.	.	.	.
16dd\	.	16b-\	.	.	.	.	.
16ee-\JJ	.	16cc\JJ	.	.	.	.	.
16dd\LL	.	16b-\LL	.	.	.	.	.
16cc\	.	16a-\	.	.	.	.	.
16b-\	.	16g\	.	.	.	.	.
16a-\JJ)	.	16f\JJ	.	.	.	.	.
(16g\LL	.	8e-\)	.	(16ee-\LL]	.	[2ee-\	.
16a-\	.	.	.	16dd\	.	.	.
16b-\	.	8r	.	16cc\	.	.	.
16cc\JJ	.	.	.	16b-\JJ	.	.	.
16b-\LL	.	4r	.	16cc\LL	.	.	.
16a-\	.	.	.	16dd\	.	.	.
16g\	.	.	.	16ee-\	.	.	.
16f\JJ)	.	.	.	16ff\JJ)	.	.	.
=181	=181	=181	=181	=181	=181	=181	=181
8e-\	.	(16G/LL	.	(16gg\LL	.	(16ee-\LL]	.
.	.	16A-/	.	16ff\	.	16dd\	.
8r	.	16B-/	.	16ee-\	.	16cc\	.
.	.	16c/JJ	.	16dd\JJ	.	16b-\JJ	.
4r	.	16B-/LL	.	16ee-\LL	.	16cc\LL	.
.	.	16A-/	.	16ff\	.	16dd\	.
.	.	16G/	.	16gg\	.	16ee-\	.
.	.	16F/JJ	.	16aa-\JJ)	.	16ff\JJ)	.
*clefF4	*clefF4	*	*	*	*	*	*
(16BB-\LL	.	8E-/)	.	8bb-\	.	(16gg\LL	.
16C\	.	.	.	.	.	16ff\	.
16D\	.	8r	.	8r	.	16ee-\	.
16E-\JJ	.	.	.	.	.	16dd\JJ	.
16D\LL	.	4r	.	4r	.	16ee-\LL	.
16C\	.	.	.	.	.	16ff\	.
16BB-\	.	.	.	.	.	16gg\	.
16AA-\JJ)	.	.	.	.	.	16aa-\JJ)	.
=182	=182	=182	=182	=182	=182	=182	=182
(16GG/LL	.	2r	.	2r	.	(4bb-'\	.
16AA-/	.	.	.	.	.	.	.
16BB-/	.	.	.	.	.	.	.
16C/JJ	.	.	.	.	.	.	.
16BB-/LL	.	.	.	.	.	4ccc'\	.
16AA-/	.	.	.	.	.	.	.
16GG/	.	.	.	.	.	.	.
16FF/JJ)	.	.	.	.	.	.	.
8EE-'/L	.	4r	.	4r	.	4ddd'\	.
8DD'/	.	.	.	.	.	.	.
8CC'/	.	8r	.	8r	.	4eee-'\)	.
8BB-'/J	.	(8G/	.	8e-/ 8cc/	.	.	.
=183	=183	=183	=183	=183	=183	=183	=183
(2AAn/	.	4F/	.	4e-/ 4cc/	.	(4eee-\	.
.	.	2f\	.	(4c/	.	2e-/)	.
2AA-/)	.	.	.	4c-/	.	.	.
.	.	4F/)	.	4B-/) 4d/	.	(12f/L	.
.	.	.	.	.	.	12g/	.
.	.	.	.	.	.	12a-/J)	.
=184	=184	=184	=184	=184	=184	=184	=184
4GG/	p	4G/	p	4B-/	p	(2.b-\	p
4r	.	4r	.	4r	.	.	.
(16GG/LL	.	2r	.	[2b-\	.	.	.
16AA-/	.	.	.	.	.	.	.
16BB-/	.	.	.	.	.	.	.
16C/JJ	.	.	.	.	.	.	.
16BB-/LL	.	.	.	.	.	4dd-\	.
16AA-/	.	.	.	.	.	.	.
16GG/	.	.	.	.	.	.	.
16FF/JJ	.	.	.	.	.	.	.
=185	=185	=185	=185	=185	=185	=185	=185
8EEn/)	.	(16G/LL	.	4b-\]	.	4cc\	.
.	.	16A-/	.	.	.	.	.
8r	.	16B-/	.	.	.	.	.
.	.	16c/JJ	.	.	.	.	.
4r	.	16B-/LL	.	(4dd-\	.	4gg\	.
.	.	16A-/	.	.	.	.	.
.	.	16G/	.	.	.	.	.
.	.	16F/JJ	.	.	.	.	.
2r	.	8En/)	.	4cc\	.	4g/	.
.	.	8r	.	.	.	.	.
.	.	4r	.	8een\L	.	4cc\	.
.	.	.	.	8gg\J)	.	.	.
=186	=186	=186	=186	=186	=186	=186	=186
(16FF/LL	.	2r	.	(4g/	.	4b-\	.
16GG/	.	.	.	.	.	.	.
16AA-/	.	.	.	.	.	.	.
16BB-/JJ	.	.	.	.	.	.	.
16C/LL	.	.	.	4cc\	.	2a-/)	.
16BB-/	.	.	.	.	.	.	.
16AA-/	.	.	.	.	.	.	.
16GG/JJ	.	.	.	.	.	.	.
8FF/)	.	(16F/LL	.	8b-\	.	.	.
.	.	16G/	.	.	.	.	.
8r	.	16A-/	.	[4.a-/)	.	.	.
.	.	16B-/JJ	.	.	.	.	.
4r	.	16A-/LL	.	.	.	(4ccc\	.
.	.	16G/	.	.	.	.	.
.	.	16F/	.	.	.	.	.
.	.	16E-/JJ	.	.	.	.	.
=187	=187	=187	=187	=187	=187	=187	=187
(16FF/LL	.	8D/)	.	(8a-\L]	.	4bb-\	.
16GG/	.	.	.	.	.	.	.
16AA-/	.	8r	.	8cc\	.	.	.
16BB-/JJ	.	.	.	.	.	.	.
16AA-/LL	.	4r	.	8b-\	.	4fff\	.
16GG/	.	.	.	.	.	.	.
16FF/	.	.	.	8ff\J)	.	.	.
16EE-/JJ	.	.	.	.	.	.	.
8DD/L)	.	(16F/LL	.	8r	.	4ff\	.
.	.	16G/	.	.	.	.	.
(16F\L	.	16A-/	.	(8f/L	.	.	.
16G\JJ	.	16B-/JJ	.	.	.	.	.
16A-\LL	.	16c\LL	.	8B-/	.	4bb-\)	.
16B-\	.	16d\	.	.	.	.	.
16c\	.	16e-\	.	8f/J)	.	.	.
16d\JJ	.	16f\JJ	.	.	.	.	.
=188	=188	=188	=188	=188	=188	=188	=188
2.e-\)	.	4g\)	.	(16e-/LL	.	(4aa-\	.
.	.	.	.	16f/	.	.	.
.	.	.	.	16e-/	.	.	.
.	.	.	.	16f/JJ	.	.	.
.	.	(16e-\LL	.	16g/LL	.	2g\ 2gg\)	.
.	.	16f\	.	16a-/	.	.	.
.	.	16e-\	.	16g/	.	.	.
.	.	16f\JJ	.	16a-/JJ	.	.	.
.	.	16g\LL	.	16b-\LL	.	.	.
.	.	16a-\	.	16cc\	.	.	.
.	.	16g\	.	16b-\	.	.	.
.	.	16a-\JJ	.	16cc\JJ	.	.	.
(4e-\	.	8b-'\L	.	8dd-'\L	.	4g\ 4gg\	.
.	.	8b-'\J)	.	8dd-'\J)	.	.	.
=189	=189	=189	=189	=189	=189	=189	=189
2d\)	.	2bn\	.	2ddn\	.	1g [1gg	.
2c\	.	2b-\	.	2een\	.	.	.
=190	=190	=190	=190	=190	=190	=190	=190
4f\	.	4a-\	.	(8cc\L	.	(8gg\L]	.
.	.	.	.	8f\)	.	8ff\)	.
(2AA-/	.	(2F/	.	(8g'\	.	(8gg'\	.
.	.	.	.	8a-'\J)	.	8aa-'\J)	.
.	.	.	.	(4c/	.	(4cc\	.
4AAn/)	.	4F#/)	.	4d/)	.	4dd\)	.
=191	=191	=191	=191	=191	=191	=191	=191
(8BB-/L	.	2G/ 2B-/	.	2e-/	.	2ee-\	.
8AA-/)	.	.	.	.	.	.	.
(8BB-'/	.	.	.	.	.	.	.
8C'/J)	.	.	.	.	.	.	.
4.BB-/	.	(8A-/L	.	4.d/	.	4.ff\	.
.	.	8G/)	.	.	.	.	.
.	.	(8A-'/	.	.	.	.	.
8BB-/	.	8Fn'/J)	.	8d/	.	8b-\	.
=192	=192	=192	=192	=192	=192	=192	=192
4E-\	p	4G/	p	4g/	p	(16e-/LL	p
.	.	.	.	.	.	16f/	.
.	.	.	.	.	.	16e-/	.
.	.	.	.	.	.	16f/JJ	.
2EE-/	.	(16E-/LL	.	2G/ 2g/	.	16g/LL	.
.	.	16F/	.	.	.	16a-/	.
.	.	16E-/	.	.	.	16g/	.
.	.	16F/JJ	.	.	.	16a-/JJ	.
.	.	16G/LL	.	.	.	16b-\LL	.
.	.	16A-/	.	.	.	16cc\	.
.	.	16G/	.	.	.	16b-\	.
.	.	16A-/JJ	.	.	.	16cc\JJ	.
(4EE-/	.	8B-'/L	.	4G/ 4g/	.	8dd-'\L	.
.	.	8B-'/J)	.	.	.	8dd-'\J)	.
=193	=193	=193	=193	=193	=193	=193	=193
2DD/)	.	(4Bn/	.	[1G [1g	.	(2ddn\	.
.	.	4bn\	.	.	.	.	.
2CC/	.	4b-\	.	.	.	2een\)	.
.	.	4B-/)	.	.	.	.	.
=194	=194	=194	=194	=194	=194	=194	=194
(8FF/L	.	4A-/	.	8G/] 8g/L]	.	4ff\	.
8F/	.	.	.	(8f/	.	.	.
8En/	.	4a-\	.	8en/	.	4aa-\	.
8F/J	.	.	.	8f/J	.	.	.
8G\L	.	4r	.	8g/L	.	4r	.
8A-\	.	.	.	8a-/	.	.	.
8C\	.	4a-\	.	8c/	.	4aa-\	.
8F\J)	.	.	.	8f/J)	.	.	.
=195	=195	=195	=195	=195	=195	=195	=195
(8F\L	.	4r	.	(8f/L	.	4r	.
8E-\	.	.	.	8e-/	.	.	.
8BB-\	.	4g\	.	8B-/	.	4bb-\	.
8C\J	.	.	.	8c/J	.	.	.
8BB-/L	.	4r	.	8B-/L	.	4r	.
8C/)	.	.	.	8c/)	.	.	.
8BB-'/	.	4d\	.	8B-'/	.	4bb-\	.
8BB-'/J	.	.	.	8B-'/J	.	.	.
=196	=196	=196	=196	=196	=196	=196	=196
[2EE-/	f	[2E-/	f	[2B-/	.	[2gg\	f
8EE-/L]	.	8E-/L]	.	8B-/L]	.	8gg\L]	.
8DD/	.	8F/	.	8b-/	.	8bb-\	.
8EE-/	.	8E-/	.	8B-/	.	8gg\	.
8EE-/J	.	8E-/J	.	8B-/J	.	8gg\J	.
=197	=197	=197	=197	=197	=197	=197	=197
8EE-/L	.	8E-/L	.	8B-/L	.	8gg\L	.
8DD/	.	8F/	.	8b-/	mf	8bb-\	.
8EE-/	.	8E-/	.	8B-/	.	8gg\	.
8EE-/J	.	8E-/J	.	8B-/J	.	8gg\J	.
8EE-/L	.	8E-/L	.	8B-/L	.	8gg\L	.
8BB-/	.	8F/	.	8B-/	.	8aa-\	.
8BB-/	.	8D/	.	8B-/	.	8ff\	.
8BB-/J	.	8D/J	.	8B-/J	.	8ff\J	.
=198	=198	=198	=198	=198	=198	=198	=198
(8BB-/L	.	(8D/L	.	4B-/	.	(8ff\L	.
8EE-/J)	.	8E-/J)	.	.	.	8gg\J)	.
4EE-/	.	4E-/	.	4B-/	.	4gg\	.
8r	.	8r	.	8r	.	8r	.
8BB-/L	.	8F/L	.	8B-/L	.	8a-/L	.
8BB-/	.	8D/	.	8B-/	.	8f/	.
8BB-/J	.	8D/J	.	8B-/J	.	8f/J	.
=199	=199	=199	=199	=199	=199	=199	=199
(8BB-/L	.	(8D/L	.	4B-/	.	(8f/L	.
8EE-/J)	.	8E-/J)	.	.	.	8g/J)	.
4EE-/	.	4E-/	.	4B-/	.	4g/	.
8r	.	8r	.	8r	.	8r	.
8BB-/L	.	8F/L	.	8B-/L	.	8a-/L	.
8BB-/	.	8D/	.	8B-/	.	8f/	.
8EE-/J	.	8E-/J	.	8B-/J	.	8g/J	.
=200	=200	=200	=200	=200	=200	=200	=200
4EE-/	.	4E-/	.	4B-/	.	4g/	.
4r	.	4r	.	4r	.	4r	.
4EE-/	.	4E-/	.	4B-/	.	4g/	.
4r	.	4r	.	4r	.	4r	.
=201	=201	=201	=201	=201	=201	=201	=201
(4EE-'/	.	(4E-'/	.	(4B-'/	.	(4g'/	.
4EE-'/	.	4E-'/	.	4B-'/	.	4g'/	.
4EE-'/	.	4E-'/	.	4B-'/	.	4g'/	.
4EE-'/)	.	4E-'/)	.	4B-'/)	.	4g'/)	.
=202	=202	=202	=202	=202	=202	=202	=202
1EE-	pp	1E-	pp	1B-	pp	1g	pp
=203	=203	=203	=203	=203	=203	=203	=203
1EE-	.	1E-	.	1B-	.	1g	.
=204	=204	=204	=204	=204	=204	=204	=204
8EE-/L	ppp	4E-/	ppp	4B-/	ppp	4g/	ppp
8D/	.	.	.	.	.	.	.
8E-/	.	4r	.	4r	.	4r	.
8E-/J	.	.	.	.	.	.	.
4E-\	.	8r	.	8r	.	8r	.
.	.	8d\L	.	8f/L	.	8b-/L	.
4r	.	8e-\	.	8B-/	.	8g/	.
.	.	8e-\J	.	8B-/J	.	8g/J	.
=205	=205	=205	=205	=205	=205	=205	=205
8r	.	4e-\	.	4B-/	.	4g/	.
8D\L	.	.	.	.	.	.	.
8E-\	.	4r	.	4r	.	4r	.
8E-\J	.	.	.	.	.	.	.
4BBn/	.	8r	.	8r	.	8r	.
.	.	8Bn\L	.	8d/L	.	8g/L	.
4r	.	8c\	.	8G/	.	8e-/	.
.	.	8c\J	.	8G/J	.	8e-/J	.
=206	=206	=206	=206	=206	=206	=206	=206
8r	.	4c\	.	4G/	.	4e-/	.
8BBn/L	.	.	.	.	.	.	.
8C/	.	4r	.	4r	.	4r	.
8C/J	.	.	.	.	.	.	.
4FF#/	.	8r	.	8r	.	8r	.
.	.	8An/L	.	8c/L	.	8e-/L	.
4r	.	8c/	.	8An/	.	8d/	.
.	.	8c/J	.	8A/J	.	8d/J	.
=207	=207	=207	=207	=207	=207	=207	=207
4F#\	.	4D/ 4c/	.	4An/	.	4d/	.
4r	.	4r	.	4r	.	4r	.
4F#\	.	4D/ 4c/	.	4A/	.	4d/	.
4r	.	4r	.	4r	.	4r	.
=208	=208	=208	=208	=208	=208	=208	=208
(4F#'\	.	(4D'/ 4c'/	.	(4A-'/	.	(4d'/	.
4F#'\	.	4D'/ 4c'/	.	4A-'/	.	4d'/	.
4F#'\	.	4D'/ 4c'/	.	4A-'/	.	4d'/	.
4F#'\)	.	4D'/) 4c'/	.	4A-'/)	.	4d'/)	.
=209	=209	=209	=209	=209	=209	=209	=209
1F#	.	1D 1c	.	1A-	.	1d	.
=210	=210	=210	=210	=210	=210	=210	=210
1FF#	.	1An	.	1c	.	1d	.
=211	=211	=211	=211	=211	=211	=211	=211
(1FFn	.	1A-	.	1Bn	.	1d	.
=212	=212	=212	=212	=212	=212	=212	=212
2FF/	.	(2A-/	.	(2Bn/	.	(2d/	.
2EE-/)	.	2G/)	.	2c/)	.	2e-/)	.
=213	=213	=213	=213	=213	=213	=213	=213
1DD	.	1F	.	1d	.	1f	.
=214	=214	=214	=214	=214	=214	=214	=214
(2DD/	.	(2F/	.	(2d/	.	(2f/	.
4CC/	.	2E-/)	.	2e-/)	.	2g/)	.
4C/)	pp	.	.	.	.	.	.
=215	=215	=215	=215	=215	=215	=215	=215
1BBn 1D	.	4D/	.	4f/	.	(4a-/	p
.	.	4r	.	4r	.	8f/L	.
.	.	.	.	.	.	8g/J	.
.	.	(4f\	pp	(4aa-\	pp	4a-/	.
.	.	8d\L	.	8ff\L	.	4d/)	.
.	.	8e-\J	.	8gg\J	.	.	.
=216	=216	=216	=216	=216	=216	=216	=216
1BBn 1D	.	4f\	.	4aa-\	.	(4a-/	.
.	.	4Bn/)	.	4dd\)	.	8f/L	.
.	.	.	.	.	.	8g/J	.
.	.	(4f\	.	(4aa-\	.	4a-/	.
.	.	8d\L	.	8ff\L	.	4Bn/)	.
.	.	8e-\J	.	8gg\J	.	.	.
=217	=217	=217	=217	=217	=217	=217	=217
1BB- 1D	.	4f\	.	4aa-\	.	(4a-/	.
.	.	4B-/)	.	4dd\)	.	8f/L	.
.	.	.	.	.	.	8g/J	.
.	.	(4f\	.	(4aa-\	.	4a-/	.
.	.	8d\L	.	8ff\L	.	4B-/)	.
.	.	8e-\J)	.	8gg\J)	.	.	.
=218	=218	=218	=218	=218	=218	=218	=218
1BB- 1E-	.	(4e-\	.	(4gg\	.	(4g/	.
.	.	4G/)	.	4b-\)	.	8e-/L	.
.	.	.	.	.	.	8f/J	.
.	.	(4e-\	.	(4gg\	.	4g/	.
.	.	8G/L	.	8ee-\L	.	4B-/)	.
.	.	&(8B-/J&)	.	8gg\J	.	.	.
=219	=219	=219	=219	=219	=219	=219	=219
1BB- 1F	.	4A-/	.	4ff\	.	(4f/	.
.	.	4F/)	.	4a-/)	.	8d/L	.
.	.	.	.	.	.	8e-/J	.
.	.	(4A-/	.	(4ff\	.	4f/	.
.	.	8F/L	.	8dd\L	.	4A-/)	.
.	.	8A-/J	.	8ff\J	.	.	.
=220	=220	=220	=220	=220	=220	=220	=220
2.BB-\ 2.G\	.	4G/	.	4ee-\	.	(4e-/	.
.	.	4E-/)	.	4g/)	.	8B-/L	.
.	.	.	.	.	.	8d/J	.
.	.	(4G/	.	(4ee-\	.	4e-/	.
4BB-/	.	8e-\L	.	8b-\L	.	8g/L	.
.	.	8g-\J)	.	8cc\J)	.	8e-/J)	.
=221	=221	=221	=221	=221	=221	=221	=221
4BB-'/	f	4g'\	f	4e-'/ 4cc'/	f	(16An/LL	f
.	.	.	.	.	.	16c/)	.
.	.	.	.	.	.	16e-'/	.
.	.	.	.	.	.	16g'/JJ	.
4r	.	4r	.	4r	.	16a-/LL	.
.	.	.	.	.	.	16g/	.
.	.	.	.	.	.	16e-/	.
.	.	.	.	.	.	16c/JJ	.
4BB-/	.	2r	.	2r	.	(16A/LL	.
.	.	.	.	.	.	16c/)	.
.	.	.	.	.	.	16e-'/	.
.	.	.	.	.	.	16g'/JJ	.
4E-\	.	.	.	.	.	16a-/LL	.
.	.	.	.	.	.	16g/	.
.	.	.	.	.	.	16e-/	.
.	.	.	.	.	.	16c/JJ	.
=222	=222	=222	=222	=222	=222	=222	=222
4G-\	.	4G-/	.	1r	.	(16An/LL	.
.	.	.	.	.	.	16c/)	.
.	.	.	.	.	.	16e-'/	.
.	.	.	.	.	.	16g-'/JJ	.
4r	.	4An/	.	.	.	16an/LL	.
.	.	.	.	.	.	16g-/	.
.	.	.	.	.	.	16e-/	.
.	.	.	.	.	.	16c/JJ	.
2r	.	4c\	.	.	.	(16A/LL	.
.	.	.	.	.	.	16c/)	.
.	.	.	.	.	.	16e-'/	.
.	.	.	.	.	.	16g-'/JJ	.
.	.	4e-\	.	.	.	16a/LL	.
.	.	.	.	.	.	16g-/	.
.	.	.	.	.	.	16e-/	.
.	.	.	.	.	.	16c/JJ	.
=223	=223	=223	=223	=223	=223	=223	=223
1r	.	4g-\	.	4an/	.	(16An/LL	.
.	.	.	.	.	.	16c/)	.
.	.	.	.	.	.	16e-'/	.
.	.	.	.	.	.	16g-'/JJ	.
.	.	4r	.	4cc\	.	16an/LL	.
.	.	.	.	.	.	16g-/	.
.	.	.	.	.	.	16e-/	.
.	.	.	.	.	.	16c/JJ	.
.	.	2r	.	4ee-\	.	(16A/LL	.
.	.	.	.	.	.	16c/)	.
.	.	.	.	.	.	16e-'/	.
.	.	.	.	.	.	16g-'/JJ	.
.	.	.	.	4gg-\	.	16a/LL	.
.	.	.	.	.	.	16g-/	.
.	.	.	.	.	.	16e-/	.
.	.	.	.	.	.	16c/JJ	.
=224	=224	=224	=224	=224	=224	=224	=224
2r	.	2r	.	4aan\	.	(16An/LL	.
.	.	.	.	.	.	16c/)	.
.	.	.	.	.	.	16e-'/	.
.	.	.	.	.	.	16g-'/JJ	.
.	.	.	.	4ccc\	.	16a-/LL	.
.	.	.	.	.	.	16g-/	.
.	.	.	.	.	.	16e-/	.
.	.	.	.	.	.	16c/JJ	.
4r	.	4r	.	4eee-\	.	(16A/LL	.
.	.	.	.	.	.	16c/)	.
.	.	.	.	.	.	16e-'/	.
.	.	.	.	.	.	16g-'/JJ	.
4AAn'/	.	4G-'/	.	4r	.	16a-/LL	.
.	.	.	.	.	.	16g-/	.
.	.	.	.	.	.	16e-/	.
.	.	.	.	.	.	16c/JJ	.
=225	=225	=225	=225	=225	=225	=225	=225
4AA-'/	f	4F'/	f	4d'/ 4cc-'/	f	(16d/LL	.
.	.	.	.	.	.	16f/)	.
.	.	.	.	.	.	16a-/	.
.	.	.	.	.	.	16cc-/JJ	.
4r	.	4r	.	4r	.	16dd/LL	.
.	.	.	.	.	.	16cc-/	.
.	.	.	.	.	.	16a-/	.
.	.	.	.	.	.	16f/JJ	.
4AA-/	.	2r	.	2r	.	16f/LL	.
.	.	.	.	.	.	16a-/	.
.	.	.	.	.	.	16cc-/	.
.	.	.	.	.	.	16dd/JJ	.
4D/	.	.	.	.	.	16ff\LL	.
.	.	.	.	.	.	16dd\	.
.	.	.	.	.	.	16cc-\	.
.	.	.	.	.	.	16a-\JJ	.
=226	=226	=226	=226	=226	=226	=226	=226
4F\	.	4F/	.	1r	.	16d/LL	.
.	.	.	.	.	.	16a-/	.
.	.	.	.	.	.	16cc-/	.
.	.	.	.	.	.	16dd/JJ	.
4r	.	4A-/	.	.	.	16ff\LL	.
.	.	.	.	.	.	16dd\	.
.	.	.	.	.	.	16cc-\	.
.	.	.	.	.	.	16a-\JJ	.
2r	.	4c-\	.	.	.	16d\LL	.
.	.	.	.	.	.	16cc-\	.
.	.	.	.	.	.	16aa-\	.
.	.	.	.	.	.	16cc-\JJ	.
.	.	4d\	.	.	.	16aa-\LL	.
.	.	.	.	.	.	16cc-\	.
.	.	.	.	.	.	16d\	.
.	.	.	.	.	.	16cc-\JJ	.
=227	=227	=227	=227	=227	=227	=227	=227
1r	.	1r	.	4f/	.	16d\LL	.
.	.	.	.	.	.	16cc-\	.
.	.	.	.	.	.	16aa-\	.
.	.	.	.	.	.	16cc-\JJ	.
.	.	.	.	4a-/	.	16aa-\LL	.
.	.	.	.	.	.	16cc-\	.
.	.	.	.	.	.	16d\	.
.	.	.	.	.	.	16cc-\JJ	.
.	.	.	.	4cc-\	.	16d\LL	.
.	.	.	.	.	.	16cc-\	.
.	.	.	.	.	.	16aa-\	.
.	.	.	.	.	.	16cc-\JJ	.
.	.	.	.	4dd\	.	16aa-\LL	.
.	.	.	.	.	.	16cc-\	.
.	.	.	.	.	.	16d\	.
.	.	.	.	.	.	16cc-\JJ	.
=228	=228	=228	=228	=228	=228	=228	=228
2r	.	2r	.	4ff\	.	16d\LL	.
.	.	.	.	.	.	16cc-\	.
.	.	.	.	.	.	16aa-\	.
.	.	.	.	.	.	16cc-\JJ	.
.	.	.	.	4aa-\	.	16aa-\LL	.
.	.	.	.	.	.	16cc-\	.
.	.	.	.	.	.	16d\	.
.	.	.	.	.	.	16cc-\JJ	.
4r	.	4r	.	4ccc-\	.	16d\LL	.
.	.	.	.	.	.	16cc-\	.
.	.	.	.	.	.	16aa-\	.
.	.	.	.	.	.	16cc-\JJ	.
4F\	.	4A-'/	.	4r	.	16aa-\LL	.
.	.	.	.	.	.	16cc-\	.
.	.	.	.	.	.	16d\	.
.	.	.	.	.	.	16cc-\JJ	.
=229	=229	=229	=229	=229	=229	=229	=229
4GG'/	f	4Gn'/ 4B-'/	f	4en/ 4dd-/	f	16en\LL	.
.	.	.	.	.	.	16dd-\	.
.	.	.	.	.	.	16bb-\	.
.	.	.	.	.	.	16dd-\JJ	.
4r	.	4r	.	4r	.	16bb-\LL	.
.	.	.	.	.	.	16dd-\	.
.	.	.	.	.	.	16e\	.
.	.	.	.	.	.	16dd-\JJ	.
4GG/	.	2r	.	2r	.	16e\LL	.
.	.	.	.	.	.	16dd-\	.
.	.	.	.	.	.	16bb-\	.
.	.	.	.	.	.	16dd-\JJ	.
4BB-/	.	.	.	.	.	16bb-\LL	.
.	.	.	.	.	.	16dd-\	.
.	.	.	.	.	.	16e\	.
.	.	.	.	.	.	16dd-\JJ	.
=230	=230	=230	=230	=230	=230	=230	=230
4D-/	.	4D-/	.	1r	.	16en\LL	.
.	.	.	.	.	.	16dd-\	.
.	.	.	.	.	.	16bb-\	.
.	.	.	.	.	.	16dd-\JJ	.
4r	.	4En/	.	.	.	16bb-\LL	.
.	.	.	.	.	.	16dd-\	.
.	.	.	.	.	.	16e\	.
.	.	.	.	.	.	16dd-\JJ	.
2r	.	4G/	.	.	.	16e\LL	.
.	.	.	.	.	.	16dd-\	.
.	.	.	.	.	.	16bb-\	.
.	.	.	.	.	.	16dd-\JJ	.
.	.	4B-/	.	.	.	16bb-\LL	.
.	.	.	.	.	.	16dd-\	.
.	.	.	.	.	.	16e\	.
.	.	.	.	.	.	16dd-\JJ	.
=231	=231	=231	=231	=231	=231	=231	=231
1r	.	1r	.	4d-/	.	16en\LL	.
.	.	.	.	.	.	16dd-\	.
.	.	.	.	.	.	16bb-\	.
.	.	.	.	.	.	16dd-\JJ	.
.	.	.	.	4en/	.	16bb-\LL	.
.	.	.	.	.	.	16dd-\	.
.	.	.	.	.	.	16e\	.
.	.	.	.	.	.	16dd-\JJ	.
.	.	.	.	4g/	.	16e\LL	.
.	.	.	.	.	.	16dd-\	.
.	.	.	.	.	.	16bb-\	.
.	.	.	.	.	.	16dd-\JJ	.
.	.	.	.	4b-/	.	16bb-\LL	.
.	.	.	.	.	.	16dd-\	.
.	.	.	.	.	.	16e\	.
.	.	.	.	.	.	16dd-\JJ	.
=232	=232	=232	=232	=232	=232	=232	=232
2r	.	4en\	.	4dd-\	.	16en\LL	.
.	.	.	.	.	.	16dd-\	.
.	.	.	.	.	.	16bb-\	.
.	.	.	.	.	.	16dd-\JJ	.
.	.	4g\	.	4r	.	16bb-\LL	.
.	.	.	.	.	.	16dd-\	.
.	.	.	.	.	.	16e\	.
.	.	.	.	.	.	16dd-\JJ	.
4r	.	4b-\	.	[2ccn\	.	16e\LL	.
.	.	.	.	.	.	16ccn\	.
.	.	.	.	.	.	16bb-\	.
.	.	.	.	.	.	16cc\JJ	.
4GG/	.	4B-/	.	.	.	16gg\LL	.
.	.	.	.	.	.	16cc\	.
.	.	.	.	.	.	16e\	.
.	.	.	.	.	.	16cc\JJ	.
=233	=233	=233	=233	=233	=233	=233	=233
4AA-/	.	4F/	.	(4cc\]	.	16f\LL	.
.	.	.	.	.	.	16cc\	.
.	.	.	.	.	.	16gg\	.
.	.	.	.	.	.	16cc\JJ	.
4r	.	4r	.	8a-\L	.	16ff\LL	.
.	.	.	.	.	.	16cc\	.
.	.	.	.	8b-\J	.	16f\	.
.	.	.	.	.	.	16cc\JJ	.
4AA-/	.	[2c/	.	4cc\	.	16f\LL	.
.	.	.	.	.	.	16cc\	.
.	.	.	.	.	.	16ff\	.
.	.	.	.	.	.	16cc\JJ	.
4F\	.	.	.	4f/)	.	16aa-\LL	.
.	.	.	.	.	.	16cc\	.
.	.	.	.	.	.	16f\	.
.	.	.	.	.	.	16cc\JJ	.
=234	=234	=234	=234	=234	=234	=234	=234
4BB-/	.	(4c/]	.	2ddn\	.	16f\LL	.
.	.	.	.	.	.	16ddn\	.
.	.	.	.	.	.	16aa-\	.
.	.	.	.	.	.	16dd\JJ	.
4r	.	8B-/L	.	.	.	16aa-\LL	.
.	.	.	.	.	.	16dd\	.
.	.	8c/J	.	.	.	16f\	.
.	.	.	.	.	.	16dd\JJ	.
4BB-/	.	4d\	.	[2dd\	.	16g\LL	.
.	.	.	.	.	.	16dd\	.
.	.	.	.	.	.	16gg\	.
.	.	.	.	.	.	16dd\JJ	.
4D/	.	4G/)	.	.	.	16gg\LL	.
.	.	.	.	.	.	16dd\	.
.	.	.	.	.	.	16b-\	.
.	.	.	.	.	.	16dd\JJ	.
=235	=235	=235	=235	=235	=235	=235	=235
4BB-/	.	2d\	.	(4dd\]	.	16g\LL	.
.	.	.	.	.	.	16dd\	.
.	.	.	.	.	.	16bb-\	.
.	.	.	.	.	.	16dd\JJ	.
4r	.	.	.	8b-\L	.	16bb-\LL	.
.	.	.	.	.	.	16dd\	.
.	.	.	.	8cc\J	.	16g\	.
.	.	.	.	.	.	16dd\JJ	.
4BB-/	.	[2d\	.	4dd\	.	16g\LL	.
.	.	.	.	.	.	16dd\	.
.	.	.	.	.	.	16bb-\	.
.	.	.	.	.	.	16dd\JJ	.
4G\	.	.	.	4g/)	.	16bb-\LL	.
.	.	.	.	.	.	16dd\	.
.	.	.	.	.	.	16b-\	.
.	.	.	.	.	.	16dd\JJ	.
=236	=236	=236	=236	=236	=236	=236	=236
4C/	.	(4d\]	.	2ee-\	.	16b-\LL	.
.	.	.	.	.	.	16ee-\	.
.	.	.	.	.	.	16gg\	.
.	.	.	.	.	.	16ee-\JJ	.
4r	.	8c\L	.	.	.	16gg\LL	.
.	.	.	.	.	.	16ee-\	.
.	.	8d\J	.	.	.	16b-\	.
.	.	.	.	.	.	16ee-\JJ	.
4C/	.	4e-\	.	[2ee-\	.	16cc\LL	.
.	.	.	.	.	.	16ee-\	.
.	.	.	.	.	.	16aa-\	.
.	.	.	.	.	.	16ee-\JJ	.
4E-\	.	4A-/)	.	.	.	16aa-\LL	.
.	.	.	.	.	.	16ee-\	.
.	.	.	.	.	.	16cc\	.
.	.	.	.	.	.	16ee-\JJ	.
=237	=237	=237	=237	=237	=237	=237	=237
4C/	.	2e-\	.	(4ee-\]	.	16cc\LL	.
.	.	.	.	.	.	16ee-\	.
.	.	.	.	.	.	16aa-\	.
.	.	.	.	.	.	16ee-\JJ	.
4r	.	.	.	8cc\L	.	16aa-\LL	.
.	.	.	.	.	.	16ee-\	.
.	.	.	.	8dd\J	.	16cc\	.
.	.	.	.	.	.	16ee-\JJ	.
4CC/	.	[2e-\	.	4ee-\	.	16a-\LL	.
.	.	.	.	.	.	16cc\	.
.	.	.	.	.	.	16ee-\	.
.	.	.	.	.	.	16cc\JJ	.
4AA-/	.	.	.	4a-/)	.	16ee-\LL	.
.	.	.	.	.	.	16cc\	.
.	.	.	.	.	.	16a-\	.
.	.	.	.	.	.	16cc\JJ	.
=238	=238	=238	=238	=238	=238	=238	=238
4DD/	.	(4e-\]	.	2ff\	.	16a-\LL	.
.	.	.	.	.	.	16b-\	.
.	.	.	.	.	.	16ff\	.
.	.	.	.	.	.	16b-\JJ	.
4r	.	8d\L	.	.	.	16ff\LL	.
.	.	.	.	.	.	16b-\	.
.	.	8e-\J	.	.	.	16a-\	.
.	.	.	.	.	.	16b-\JJ	.
4DD/	.	4f\	.	[2ff\	.	16f/LL	.
.	.	.	.	.	.	16a-/	.
.	.	.	.	.	.	16b-/	.
.	.	.	.	.	.	16a-/JJ	.
4D/	.	4B-/)	.	.	.	16b-/LL	.
.	.	.	.	.	.	16a-/	.
.	.	.	.	.	.	16f/	.
.	.	.	.	.	.	16a-/JJ	.
=239	=239	=239	=239	=239	=239	=239	=239
4DD/	.	2f\	.	(4ff\]	.	16B-/LL	.
.	.	.	.	.	.	16f/	.
.	.	.	.	.	.	16a-/	.
.	.	.	.	.	.	16f/JJ	.
4r	.	.	.	8dd\L	.	16a-/LL	.
.	.	.	.	.	.	16f/	.
.	.	.	.	8ee-\J	.	16B-/	.
.	.	.	.	.	.	16f/JJ	.
8DD'/L	.	[2f\	.	4ff\	.	16A-/LL	.
.	.	.	.	.	.	16c/	.
8FF'/	.	.	.	.	.	16f/	.
.	.	.	.	.	.	16B-/JJ	.
8BB-'/	.	.	.	4b-\)	.	16f/LL	.
.	.	.	.	.	.	16B-/	.
8D'/J	.	.	.	.	.	16A-/	.
.	.	.	.	.	.	16B-/JJ	.
=240	=240	=240	=240	=240	=240	=240	=240
(2.E-\	f	(4f\]	f	(2.gg\	f	16G/LL	f
.	.	.	.	.	.	16B-/	.
.	.	.	.	.	.	16e-/	.
.	.	.	.	.	.	16g/JJ	.
.	.	2e-\	.	.	.	16B-/LL	.
.	.	.	.	.	.	16e-/	.
.	.	.	.	.	.	16g/	.
.	.	.	.	.	.	16b-/JJ	.
.	.	.	.	.	.	16g\LL	.
.	.	.	.	.	.	16b-\	.
.	.	.	.	.	.	16ee-\	.
.	.	.	.	.	.	16gg\JJ	.
4AA-/)	.	4f\	.	4aa-\)	.	16cc\LL	.
.	.	.	.	.	.	16ff\	.
.	.	.	.	.	.	16aa-\	.
.	.	.	.	.	.	16ccc\JJ	.
=241	=241	=241	=241	=241	=241	=241	=241
2BB-/	.	4d\	.	(2ff\	.	16d\LL	.
.	.	.	.	.	.	16bb-\	.
.	.	.	.	.	.	16aa-\	.
.	.	.	.	.	.	16ff\JJ	.
.	.	4f\	.	.	.	16aa-\LL	.
.	.	.	.	.	.	16ff\	.
.	.	.	.	.	.	16dd\	.
.	.	.	.	.	.	16b-\JJ	.
2BB-/	.	4A-/	.	2bb-\)	.	16a-/LL	.
.	.	.	.	.	.	16f/	.
.	.	.	.	.	.	16d/	.
.	.	.	.	.	.	16A-/JJ	.
.	.	4d\)	.	.	.	16f/LL	.
.	.	.	.	.	.	16d/	.
.	.	.	.	.	.	16B-/	.
.	.	.	.	.	.	16A-/JJ	.
=242	=242	=242	=242	=242	=242	=242	=242
2.E-\	f	(4B-/	f	(2.gg\	f	16G/LL	.
.	.	.	.	.	.	16B-/	f
.	.	.	.	.	.	16e-/	.
.	.	.	.	.	.	16g/JJ	.
.	.	4b-\	.	.	.	16B-/LL	.
.	.	.	.	.	.	16e-/	.
.	.	.	.	.	.	16g/	.
.	.	.	.	.	.	16b-/JJ	.
.	.	4e-\	.	.	.	16g\LL	.
.	.	.	.	.	.	16b-\	.
.	.	.	.	.	.	16ee-\	.
.	.	.	.	.	.	16gg\JJ	.
4AA-/	.	4f\	.	4aa-\)	.	16cc\LL	.
.	.	.	.	.	.	16ff\	.
.	.	.	.	.	.	16aa-\	.
.	.	.	.	.	.	16ccc\JJ	.
=243	=243	=243	=243	=243	=243	=243	=243
2BB-/	.	4d\	.	(2ff\	.	16d/LL	.
.	.	.	.	.	.	16bb-\	.
.	.	.	.	.	.	16aa-\	.
.	.	.	.	.	.	16ff\JJ	.
.	.	4f\	.	.	.	16aa-\LL	.
.	.	.	.	.	.	16ff\	.
.	.	.	.	.	.	16dd\	.
.	.	.	.	.	.	16b-\JJ	.
2BB-/	.	4A-/	.	2bb-\)	.	16a-/LL	.
.	.	.	.	.	.	16f/	.
.	.	.	.	.	.	16d/	.
.	.	.	.	.	.	16B-/JJ	.
.	.	4d\)	.	.	.	16f/LL	.
.	.	.	.	.	.	16d/	.
.	.	.	.	.	.	16B-/	.
.	.	.	.	.	.	16A-/JJ	.
=244	=244	=244	=244	=244	=244	=244	=244
(2.E-\	ff	(4B-/	ff	(2.gg\	ff	16G/LL	ff
.	.	.	.	.	.	16B-/	.
.	.	.	.	.	.	16e-/	.
.	.	.	.	.	.	16g/JJ	.
.	.	4b-\	.	.	.	16B-/LL	.
.	.	.	.	.	.	16e-/	.
.	.	.	.	.	.	16g/	.
.	.	.	.	.	.	16b-/JJ	.
.	.	4e-\	.	.	.	16g\LL	.
.	.	.	.	.	.	16b-\	.
.	.	.	.	.	.	16ee-\	.
.	.	.	.	.	.	16gg\JJ	.
4AA-/)	.	4a-\	.	4ccc\)	.	16cc\LL	.
.	.	.	.	.	.	16ee-\	.
.	.	.	.	.	.	16aa-\	.
.	.	.	.	.	.	16ccc\JJ	.
=245	=245	=245	=245	=245	=245	=245	=245
2BB-/	.	4g\	.	2bb-\	.	16G/LL	.
.	.	.	.	.	.	16B-/	.
.	.	.	.	.	.	16e-/	.
.	.	.	.	.	.	16g/JJ	.
.	.	4G/	.	.	.	16b-\LL	.
.	.	.	.	.	.	16ee-\	.
.	.	.	.	.	.	16gg\	.
.	.	.	.	.	.	16bb-\JJ	.
2BB-/	.	4F/	.	2dd\	.	16aa-\LL	.
.	.	.	.	.	.	16gg\	.
.	.	.	.	.	.	16ff\	.
.	.	.	.	.	.	16gg\JJ	.
.	.	4B-/)	.	.	.	16aa-\LL	.
.	.	.	.	.	.	16bb-\	.
.	.	.	.	.	.	16ccc\	.
.	.	.	.	.	.	16ddd\JJ	.
=246	=246	=246	=246	=246	=246	=246	=246
4EE-/	.	4E-/	.	4g\ 4ee-\	.	4eee-\	.
4r	.	4r	.	4r	.	4r	.
8r	.	8r	.	8r	.	8r	.
8D\L	.	8B-/L	.	8bb-\L	.	8f/L	.
8E-\	.	8B-/	.	8gg\	.	8e-/	.
8E-\J	.	8B-/J	.	8gg\J	.	8e-/J	.
=247	=247	=247	=247	=247	=247	=247	=247
8E-\L	.	8B-/L	.	8gg\L	.	8e-/L	.
8D\	.	8B-/	.	8bb-\	.	8f/	.
8E-\	.	8B-/	.	8gg\	.	8e-/	.
8E-\J	.	8B-/J	.	8gg\J	.	8e-/J	.
8E-\L	.	8B-/L	.	8gg\L	.	8e-/L	.
8BB-\	.	8B-/	.	8aa-\	.	8f/	.
8BB-\	.	8B-/	.	8ff\	.	8d/	.
8BB-\J	.	8B-/J	.	8ff\J	.	8d/J	.
=248	=248	=248	=248	=248	=248	=248	=248
(8BB-\L	.	4B-/	.	(8ff\L	.	(8d/L	.
8E-\J)	.	.	.	8gg\J)	.	8e-/J)	.
4E-\	.	4B-/	.	4gg\	.	4e-/	.
8r	.	8r	.	8r	.	8r	.
8BB-/L	.	8B-/L	.	8f/L	.	8a-/L	.
8BB-/	.	8B-/	.	8d/	.	8f/	.
8BB-/J	.	8B-/J	.	8d/J	.	8f/J	.
=249	=249	=249	=249	=249	=249	=249	=249
(8BB-\L	.	4B-/	.	(8d/L	.	(8f/L	.
8E-\J)	.	.	.	8e-/J)	.	&(8g/J&))	.
4E-\	.	4B-/	.	4e-/	.	4g/	.
8r	.	8r	.	8r	.	8r	.
8BB-/L	.	8F/L	.	8a-/L	.	8B-/L	.
8BB-/	.	8D/	.	8f/	.	8B-/	.
8BB-/J	.	8D/J	.	8f/J	.	8B-/J	.
=250	=250	=250	=250	=250	=250	=250	=250
(8BB-/L	.	(8D/L	.	(8f/L	.	4B-/	.
8EE-/J)	.	8E-/J)	.	&(8g/J&)	.	.	.
4EE-/	.	4E-/	.	4g/)	.	4B-/	.
8r	.	8r	.	2r	.	8r	.
8BB-/ 8F/L	p	8A-/L	p	.	.	8B-/L	p
8BB-/ 8D/	.	8F/	.	.	.	8B-/	.
8BB-/ 8D/J	.	8F/J	.	.	.	8B-/J	.
=251	=251	=251	=251	=251	=251	=251	=251
4EE-/	.	[1E- [1G	.	2r	.	1B-	.
4r	.	.	.	.	.	.	.
4EE-/	.	.	.	4bb-\	.	.	.
4GG/	.	.	.	4gg\	.	.	.
=252	=252	=252	=252	=252	=252	=252	=252
4BB-/	.	1E-_ 1G_	.	4ee-\	.	[1B-	.
4E-\	.	.	.	4b-\	.	.	.
4GG/	.	.	.	4gg\	.	.	.
4BB-/	.	.	.	4ee-\	.	.	.
=253	=253	=253	=253	=253	=253	=253	=253
4E-\	.	1E-_ 1G_	.	4b-\	.	2B-/_	.
4G\	.	.	.	4g/	.	.	.
4BB-/	.	.	.	4ee-\	.	2B-/_	.
4E-\	.	.	.	4b-\	.	.	.
=254	=254	=254	=254	=254	=254	=254	=254
4G\	.	2.E-/] 2.G/]	.	4g/	.	2.B-/]	.
4B-\	.	.	.	4e-/	.	.	.
4e-\	.	.	.	4B-/	.	.	.
4f\	f	4B-/	f	4d/	f	4A-/	f
=255	=255	=255	=255	=255	=255	=255	=255
4g\	.	[1E- [1G	.	4e-/	.	4G'/	.
4r	.	.	.	4r	.	4r	.
4e-'\	p	.	.	8ee-\L	p	4e-'/	p
.	.	.	.	8ee-\	.	.	.
4B-'\	.	.	.	8b-\	.	4g'/	.
.	.	.	.	8b-\J	.	.	.
=256	=256	=256	=256	=256	=256	=256	=256
4G'\	.	1E-_ 1G_	.	8g/L	.	4b-'\	.
.	.	.	.	8g/	.	.	.
4E-\	.	.	.	8e-/	.	4ee-'\	.
.	.	.	.	8e-/J	.	.	.
4B-'\	.	.	.	8b-/L	.	4g'/	.
.	.	.	.	8b-/	.	.	.
4G'\	.	.	.	8g/	.	4b-'/	.
.	.	.	.	8g/J	.	.	.
=257	=257	=257	=257	=257	=257	=257	=257
4E-'\	.	1E-_ 1G_	.	8e-/L	.	4ee-'\	.
.	.	.	.	8e-/	.	.	.
4BB-'/	.	.	.	8B-/	.	4gg'\	.
.	.	.	.	8B-/J	.	.	.
4G'\	.	.	.	8g/L	.	4b-'\	.
.	.	.	.	8g/	.	.	.
4E-'\	.	.	.	8e-/	.	4ee-'\	.
.	.	.	.	8e-/J	.	.	.
=258	=258	=258	=258	=258	=258	=258	=258
4BB-'/	.	2E-/_ 2G/_	.	8B-/L	.	4gg'\	.
.	.	.	.	8b-/	.	.	.
4GG'/	.	.	.	8g/	.	4bb-'\	.
.	.	.	.	8g/J	.	.	.
4EE-'/	f	8E-/] 8G/L]	f	8e-/L	f	4eee-'\	f
.	.	8B-/	.	8ee-/	.	.	.
4BB-'/	.	8B-/	.	8dd/	.	4fff'\	.
.	.	8B-/J	.	8dd/J	.	.	.
=259	=259	=259	=259	=259	=259	=259	=259
4EE-'/	.	4B-'/	.	4ee-'\	p	4ggg'\	.
4r	.	4r	.	4r	.	4r	.
2r	.	8G/L	p	4B-'/	.	4e-'/	p
.	.	8G/	.	.	.	.	.
.	.	8B-/	.	4d'/	.	4f'/	.
.	.	8B-/J	.	.	.	.	.
=260	=260	=260	=260	=260	=260	=260	=260
2r	.	4E-/	.	4e-/	.	4g/	.
.	.	4r	.	4r	.	4r	.
4E-'\	f	4G'/	f	4b-'\	f	4ee-'\	f
4BB-'/	.	4B-'/	.	4b-'\	.	4d'\ 4b-'\ 4ff'\	.
=261	=261	=261	=261	=261	=261	=261	=261
4E-\	.	4E-/	.	4e-/ 4b-/	.	4G/ 4b-/ 4gg/	.
4r	.	4r	.	4r	.	4r	.
4BB-/	.	4F/ 4A-/	.	4B-\ 4f\ 4dd\	.	4d\ 4b-\ 4bb-\	.
4r	.	4r	.	4r	.	4r	.
=262	=262	=262	=262	=262	=262	=262	=262
4EE-/	.	4E-/ 4G/	.	4B-\ 4g\ 4ee-\	.	4G/ 4e-/	.
4r	.	4r	.	4r	.	4r	.
2r	.	2r	.	2r	.	2r	.
==	==	==	==	==	==	==	==
*-	*-	*-	*-	*-	*-	*-	*-
!!!ONB: Scanned with SharpEye into MusicXML by Don Anthony 2006///
!!!ONB: Converted to Humdrum by Craig Sapp 2006/07/24/
